!!!!SEGMENT: pl-sa--52-a-i-52_luna-georgius--salve-regina-ex-g.krn
!!!cenid: 17xx:513
!!!COM: Luna, Georgius
!!!COM-rismid: pe41010079
!!!CDT:
!!!CNT:
!!!OTL: Salve Regina ex G
!!!PDT:
!!!AGN: Sacred
!!!SMS-siglum: PL-SA
!!!SMS-shelfmark: 52/A I 52
!!!SMS-shelfwork: W
!!!SMS-variant:
!!!SMS-altvar:
!!!NIFC-rismid: 1001029926
!!!URL-scan: http://bc.bdsandomierz.pl/dlibra/publication/1346/edition/1314/content
!!!ONB-nifc:
!!!key:
**kern	**dynam	**kern	**dynam	**kern	**dynam	**kern	**dynam	**kern	**text	**text
*part5	*part5	*part4	*part4	*part3	*part3	*part2	*part2	*part1	*part1	*part1
*staff5	*	*staff4	*	*staff3	*	*staff2	*	*staff1	*staff1	*staff1
*Iempty	*	*Iempty	*	*Ivioln	*	*Ivioln	*	*Ivox	*	*
*I"Fundamento	*	*I"Violia	*	*I"Violino Secundo	*	*I"Violino Primo	*	*I"Canto	*	*
*I'B	*	*I'Vla	*	*I'Vl 2	*	*I'Vl 1	*	*I'C	*	*
*group3	*	*group2	*	*group2	*	*group2	*	*group1	*	*
*clefF4	*	*clefC3	*	*clefG2	*	*clefG2	*	*clefC1	*	*
*k[f#]	*	*k[f#]	*	*k[f#]	*	*k[f#]	*	*k[f#]	*	*
*G:	*	*G:	*	*G:	*	*G:	*	*G:	*	*
*M3/8	*	*M3/8	*	*M3/8	*	*M3/8	*	*M3/8	*	*
=1	=1	=1	=1	=1	=1	=1	=1	=1	=1	=1
!LO:TX:b:t=Salve	!	!LO:TX:b:t=Salve	!	!LO:TX:b:t=Salve	!	!LO:TX:b:t=Salve	!	!LO:N:vis=00	!	!
!LO:TX:a:t=Moderato	!	!LO:TX:a:t=Moderato	!	!LO:TX:a:t=Moderato	!	!LO:TX:a:t=Moderato	!	!LO:TX:a:t=Moderato	!	!
4G\	.	8.B\L	.	8.g/L	.	8.g/L	.	1.r	.	.
.	.	16c\K	.	16a/K	.	16a/K	.	.	.	.
8r	.	8B\J	.	8g/J	.	8g/J	.	.	.	.
=2	=2	=2	=2	=2	=2	=2	=2	=2	=2	=2
8G\L	.	8a\L	.	8cc`\L	.	8cc`\L	.	.	.	.
8G\	.	8g\J	.	8b`\J	.	8b`\J	.	.	.	.
8G\J	.	8r	.	8r	.	8r	.	.	.	.
=3	=3	=3	=3	=3	=3	=3	=3	=3	=3	=3
4G\	.	8.B\L	.	8.g/L	.	8.g/L	.	.	.	.
.	.	16c\K	.	16a/K	.	16a/K	.	.	.	.
8r	.	8B\J	.	8g/J	.	8g/J	.	.	.	.
=4	=4	=4	=4	=4	=4	=4	=4	=4	=4	=4
8G\L	.	8cc\L	.	8ee`\L	.	8ee\L	.	.	.	.
8G\	.	8b\J	.	8dd`\J	.	8dd\J	.	.	.	.
8G\J	.	8r	.	8r	.	8r	.	.	.	.
=5	=5	=5	=5	=5	=5	=5	=5	=5	=5	=5
!	!	!	!	!	!	!	!	!LO:N:vis=00	!	!
4G\	.	4b\	.	16gg`\LL	.	16gg`\LL	.	1.r	.	.
.	.	.	.	(16bb\	.	(16bb\	.	.	.	.
.	.	.	.	16aa\	.	16aa\	.	.	.	.
.	.	.	.	16gg\	.	16gg\	.	.	.	.
8r	.	8r	.	16ff#\	.	16ff#\	.	.	.	.
.	.	.	.	16ee\JJ)	.	16ee\JJ)	.	.	.	.
=6	=6	=6	=6	=6	=6	=6	=6	=6	=6	=6
8G\L	.	8b\L	.	8dd`\L	.	8dd`\L	.	.	.	.
8A\	.	8b\	.	(8dd\	.	(8dd\	.	.	.	.
8D\J	.	8a\J	.	8cc\J)	.	8cc\J)	.	.	.	.
=7	=7	=7	=7	=7	=7	=7	=7	=7	=7	=7
4G\	.	4g\	.	16b\LL	.	16b`\LL	.	.	.	.
.	.	.	.	(16bb\	.	(16bb\	.	.	.	.
.	.	.	.	16aa\	.	16aa\	.	.	.	.
.	.	.	.	16gg\	.	16gg\	.	.	.	.
8r	.	8r	.	16ff#\	.	16ff#\	.	.	.	.
.	.	.	.	16ee\JJ)	.	16ee\JJ)	.	.	.	.
=8	=8	=8	=8	=8	=8	=8	=8	=8	=8	=8
8G\L	.	8b\L	.	8dd`\L	.	8dd`\L	.	.	.	.
8A\	.	8b\	.	(8dd\	.	(8dd\	.	.	.	.
8D\J	.	8a\J	.	8cc\J)	.	8cc\J)	.	.	.	.
=9	=9	=9	=9	=9	=9	=9	=9	=9	=9	=9
!LO:TX:t=P:problem=mixed beam	!	!	!	!	!	!	!	!LO:N:vis=00	!	!
8G\L	.	8g\L	.	4b\	.	4b\	.	1.r	.	.
8BB/	.	8dd\	.	.	.	.	.	.	.	.
8GG/J	.	8b\J	.	8dd\	.	8dd\	.	.	.	.
=10	=10	=10	=10	=10	=10	=10	=10	=10	=10	=10
8C/L	.	8g\L	.	8cc\L	.	8ee\L	.	.	.	.
8C/	.	8g\	.	8.ee\	.	8.ccc\	.	.	.	.
8C/J	.	8g\J	.	.	.	.	.	.	.	.
.	.	.	.	16cc\Jk	.	16ee\Jk	.	.	.	.
=11	=11	=11	=11	=11	=11	=11	=11	=11	=11	=11
8G\L	.	8g\L	.	8b\L	.	8dd\L	.	.	.	.
8G\	.	8g\	.	8.dd\	.	8.bb\	.	.	.	.
8G\J	.	8g\J	.	.	.	.	.	.	.	.
.	.	.	.	16b\Jk	.	16dd\Jk	.	.	.	.
=12	=12	=12	=12	=12	=12	=12	=12	=12	=12	=12
8D\L	.	8f#\L	.	8a\L	.	8cc\L	.	.	.	.
8D\	.	8f#\	.	8.cc\	.	8.aa\	.	.	.	.
8D\J	.	8f#\J	.	.	.	.	.	.	.	.
.	.	.	.	16a\Jk	.	16cc\Jk	.	.	.	.
=13	=13	=13	=13	=13	=13	=13	=13	=13	=13	=13
!LO:TX:t=P:problem=mixed beam	!	!	!	!LO:TX:t=P:problem=mixed beam	!	!	!	!LO:N:vis=00	!	!
8G\L	.	8g\L	.	(16g/LL	.	(16b\LL	.	1.r	.	.
.	.	.	.	16gg\)	.	16gg\)	.	.	.	.
8BB/	.	8b\	.	(16ff#\	.	(16ff#\	.	.	.	.
.	.	.	.	16gg\)	.	16gg\)	.	.	.	.
8D/J	.	8b\J	.	(16bb\	.	(16bb\	.	.	.	.
.	.	.	.	16ff#\JJ)	.	16ff#\JJ)	.	.	.	.
=14	=14	=14	=14	=14	=14	=14	=14	=14	=14	=14
8GG/	.	8b\	.	(16gg\LL	.	(16gg\LL	.	.	.	.
.	.	.	.	16cc#X\)	.	16cc#X\)	.	.	.	.
8r	.	8r	.	(16dd\	.	(16dd\	.	.	.	.
.	.	.	.	16a\)	.	16a\)	.	.	.	.
8BB/	.	8d\	.	(16b\	.	(16b\	.	.	.	.
.	.	.	.	16g\JJ)	.	16g\JJ)	.	.	.	.
=15	=15	=15	=15	=15	=15	=15	=15	=15	=15	=15
!	!	!	!	!LO:LB:g=original	!	!	!	!	!	!
8C/L	.	8e\L	.	16e/LL	.	16e/LL	.	.	.	.
.	.	.	.	16a/JJ	.	16a/JJ	.	.	.	.
.	.	.	.	8qqg/	.	8qqg/	.	.	.	.
8D/	.	8a\	.	4f#/	.	4f#/	.	.	.	.
8DD/J	.	8a\J	.	.	.	.	.	.	.	.
=16	=16	=16	=16	=16	=16	=16	=16	=16	=16	=16
!	!	!	!	!	!	!LO:LB:g=original	!	!	!	!
!	!	!	!	!	!LO:DY:t=p.	!	!	!	!	!
!	!	!	!LO:DY:a	!LO:TX:t=P:problem=mixed beam	!LO:DY:a	!LO:TX:t=P:problem=mixed beam	!	!	!	!
8GG/L	.	8b\L	p	(16g/LL	p	(16g\LL	p	.	.	.
.	.	.	.	16gg\)	.	16gg\JJ)	.	.	.	.
8BB/	.	8b\	.	(16ff#\	.	(16ff#\LL	.	.	.	.
.	.	.	.	16gg\)	.	16gg\)	.	.	.	.
8D/J	.	8b\J	.	(16bb\	.	(16bb\	.	.	.	.
.	.	.	.	16ff#\JJ)	.	16ff#\JJ)	.	.	.	.
=17	=17	=17	=17	=17	=17	=17	=17	=17	=17	=17
!	!	!	!	!	!	!	!	!LO:N:vis=0	!	!
8GG/	.	8b\	.	(16gg\LL	.	(16gg\LL	.	2.r	.	.
.	.	.	.	16cc#X\JJ)	.	16cc#X\)	.	.	.	.
8r	.	8r	.	(16ddLL\	.	(16dd\	.	.	.	.
.	.	.	.	16a\JJ)	.	16a\)	.	.	.	.
!	!	!	!LO:DY:a	!	!	!	!	!	!	!
8BB/	.	8d\	f	(16bLL\	.	(16b\	.	.	.	.
.	.	.	.	16g\JJ)	.	16g\JJ)	.	.	.	.
=18	=18	=18	=18	=18	=18	=18	=18	=18	=18	=18
!LO:TX:t=P:problem=mixed beam	!	!LO:LB:g=original	!	!	!LO:DY:a	!	!LO:DY:a	!	!	!
8C\L	.	8e\L	.	(16e/LL	f	16e/LL	f	.	.	.
.	.	.	.	16a/JJ)	.	16a/JJ	.	.	.	.
.	.	.	.	8qqg/	.	8qqg/	.	.	.	.
8D\	.	8a\	.	4f#/	.	4f#/	.	.	.	.
8DD/J	.	8a\J	.	.	.	.	.	.	.	.
=19	=19	=19	=19	=19	=19	=19	=19	=19	=19	=19
!LO:LB:g=original	!	!LO:TX:a:t=problem: fermata na górze i na dole	!	!	!	!LO:TX:a:t=problem: fermata na górze i na dole	!	!	!	!
4GG;/	.	4b;\	.	8g;/L	.	8g;/L	.	4.r	.	.
.	.	.	.	8G/J	.	8G/J	.	.	.	.
8r	.	8r	.	8r	.	8r	.	.	.	.
=20	=20	=20	=20	=20	=20	=20	=20	=20	=20	=20
!	!LO:DY:a	!	!LO:DY:a	!	!LO:DY:a	!	!LO:DY:a	!	!	!
4G\	p	4g\	p	8.B/L	p	8.g/L	p	8.g/	Sal-	Re-
.	.	.	.	16c/K	.	16a/K	.	16a/	-ve	-gi-
8r	.	8r	.	8B/J	.	8g/J	.	8g/	re-	-na
=21	=21	=21	=21	=21	=21	=21	=21	=21	=21	=21
8G\L	.	8g\L	.	8a`/L	.	8cc'\L	.	8cc\	-gi-	Ce-
!	!	!	!	!	!	!	!	!	!	!LO:TX:a:t=sic!:li
8G\	.	8g\	.	8g`/J	.	8b'\J	.	8b\	-na	-ti
8G\J	.	8g\J	.	8r	.	8r	.	8r	.	.
=22	=22	=22	=22	=22	=22	=22	=22	=22	=22	=22
4G\	.	4g\	.	8.B/L	.	8.g/L	.	8.g/	Sal-	Re-
.	.	.	.	16c/K	.	16a/K	.	16a/	-ve	-gi-
8r	.	8r	.	8B/J	.	8g/J	.	8g/	re-	-na
=23	=23	=23	=23	=23	=23	=23	=23	=23	=23	=23
8G\L	.	8g\L	.	8cc`\L	.	8ee'\L	.	8ee\	-gi-	Ce-
8G\	.	8g\	.	8b`\J	.	8dd'\J	.	8dd\	-na	-li
8G\J	.	8g\J	.	8r	.	8r	.	8r	.	.
=24	=24	=24	=24	=24	=24	=24	=24	=24	=24	=24
4G\	.	4g\	.	4b\	.	4dd\	.	16gg\LL	Ma-	Re-
.	.	.	.	.	.	.	.	16bb\JJ	.	.
.	.	.	.	.	.	.	.	16aa\LL	-ter	.
.	.	.	.	.	.	.	.	16gg\JJ	.	.
8r	.	8r	.	8r	.	8r	.	16ff#\LL	mi-	.
.	.	.	.	.	.	.	.	16ee\JJ	.	.
=25	=25	=25	=25	=25	=25	=25	=25	=25	=25	=25
8G\L	.	8g\L	.	8b`\L	.	8dd'\L	.	4dd\	-se-	-gina
8A\	.	8f#\	.	(8b\	.	(8dd\	.	.	.	.
8D\J	.	8f#\J	.	8a\J)	.	8cc\J)	.	8cc\	-ri-	.
=26	=26	=26	=26	=26	=26	=26	=26	=26	=26	=26
4G\	.	4g\	.	4g/	.	4b\	.	16b\LL	-cor-	Re-
.	.	.	.	.	.	.	.	16bb\	.	.
.	.	.	.	.	.	.	.	16aa\	.	.
.	.	.	.	.	.	.	.	16gg\	.	.
8r	.	8r	.	8r	.	8r	.	16ff#\	.	.
.	.	.	.	.	.	.	.	16ee\JJ	.	.
=27	=27	=27	=27	=27	=27	=27	=27	=27	=27	=27
8G\L	.	8g\L	.	8b\L	.	8dd'\L	.	4dd\	.	-gi-
8A\	.	8f#\	.	(8b`\	.	(8dd\	.	.	.	.
8D\J	.	8f#\J	.	8a\J)	.	8cc\J)	.	8cc\	-di-	.
=28	=28	=28	=28	=28	=28	=28	=28	=28	=28	=28
!LO:TX:t=P:problem=mixed beam	!	!	!	!	!	!	!	!	!	!
8G\L	.	8g\L	.	8g/L	.	8b\L	.	4b\	-e	-na
*	*	*	*	*Xtuplet	*	*Xtuplet	*	*	*	*
!	!	!	!	!LO:TX:a:t=problem:klamra łukowa, kropka zamiast numeru:global	!	!LO:TX:a:t=problem:klamra łukowa, kropka zamiast numeru:global	!	!	!	!
8BB/	.	8B\	.	24dd/L	.	24bb\L	.	.	.	.
.	.	.	.	24cc/	.	24aa\	.	.	.	.
.	.	.	.	24b/JJ	.	24gg\JJ	.	.	.	.
8D/J	.	8d\J	.	24cc\LL	.	24aa\LL	.	8r	.	.
.	.	.	.	24b\	.	24gg\	.	.	.	.
.	.	.	.	24a\JJ	.	24ff#\JJ	.	.	.	.
=29	=29	=29	=29	=29	=29	=29	=29	=29	=29	=29
!LO:TX:t=P:problem=mixed beam	!	!LO:TX:t=P:problem=mixed beam	!	!LO:LB:g=original	!	!	!	!LO:LB:g=original	!	!
8GG/L	.	8G/L	.	8b`\L	.	8gg'\L	.	8dd\	Vi-	Le-
*	*	*	*	*	*	*	*	*Xtuplet	*	*
!	!	!	!	!	!	!	!	!LO:TX:a:t=problem:klamra łukowa, kropka zamiast numeru:global	!	!
8G\	.	8g\	.	(8b\	.	(8dd\	.	24dd\LL	-ta	-ta-
.	.	.	.	.	.	.	.	24cc\	.	.
.	.	.	.	.	.	.	.	24dd\JJ	.	.
8G\J	.	8g\J	.	8cc\J)	.	8ee\J)	.	24ee\LL	dul-	.
.	.	.	.	.	.	.	.	24dd\	.	.
.	.	.	.	.	.	.	.	24cc\JJ	.	.
=30	=30	=30	=30	=30	=30	=30	=30	=30	=30	=30
!	!	!	!	!	!	!LO:LB:g=original	!LO:DY:a	!	!	!
8G\L	.	8g\L	.	8b`\L	.	8dd'\L	p	8dd\L	-ce-	.
8G\	.	8g\	.	(8b\	.	(8dd\	.	24dd\L	.	.
.	.	.	.	.	.	.	.	24cc\	.	.
.	.	.	.	.	.	.	.	24dd\JJ	.	.
8G\J	.	8g\J	.	8cc\J)	.	8ee\J)	.	24ee\LL	.	.
.	.	.	.	.	.	.	.	24dd\	.	.
.	.	.	.	.	.	.	.	24cc\JJ	.	.
=31	=31	=31	=31	=31	=31	=31	=31	=31	=31	=31
8G\L	.	8g\L	.	(8b\L	.	(8dd\L	.	8dd\L	.	.
8F#\	.	8f#\	.	8a\)	.	8cc\)	.	8cc\	.	.
8G\J	.	8g\J	.	8g`\J	.	8b'\J	.	8b\J	.	.
=32	=32	=32	=32	=32	=32	=32	=32	=32	=32	=32
!	!	!LO:TX:t=P:problem=mixed beam	!	!	!	!	!	!	!	!
8d\L	.	8dd\L	.	8g`/L	.	8b'\L	.	8b\	.	.
8D\	.	8d/	.	8f#`/J	.	8a'\J	.	8a\	-do	-re
8F#\J	.	8a\J	.	8r	.	8r	.	8r	.	.
=33	=33	=33	=33	=33	=33	=33	=33	=33	=33	=33
8G\L	.	8g\L	.	16r	.	16r	.	16b\	et	Le-
.	.	.	.	16ee`\LL	.	16gg'\LL	.	16gg\	spes	.
8E\	.	8e\	.	16ee`\	.	16gg'\	.	16ff#\LL	nos-	.
.	.	.	.	16ee`\	.	16gg'\	.	16ee\JJ	.	.
8A\J	.	8a\J	.	16ee`\	.	(16gg\	.	16dd\LL	-tra	.
!	!	!	!	!LO:N:vis=16	!	!	!	!	!	!
.	.	.	.	(32dd\L	.	32ff#\L	.	16cc#X\JJ	.	.
!	!	!	!	!LO:N:vis=16	!	!	!	!	!	!
.	.	.	.	32cc#X\JJJ)	.	32ee\JJJ)	.	.	.	.
=34	=34	=34	=34	=34	=34	=34	=34	=34	=34	=34
8D\L	.	8d\L	.	(16dd\LL	.	(16ff#\LL	.	16dd\LL	Sal-	-ta-
.	.	.	.	16ee\JJ)	.	16gg\JJ)	.	32cc#X\L	.	.
.	.	.	.	.	.	.	.	32b\JJJ	.	.
8F#\	.	8f#\	.	4ff#`\	.	4aa\	.	4a\	-ve	-re
8D\J	.	8d\J	.	.	.	.	.	.	.	.
=35	=35	=35	=35	=35	=35	=35	=35	=35	=35	=35
8G\L	.	8g\L	.	16r	.	16r	.	16b\	et	Le-
.	.	.	.	16ee`\LL	.	16gg'\LL	.	16gg\	spes	.
8E\	.	8e\	.	16ee`\	.	16gg'\	.	16ff#\LL	nos-	.
.	.	.	.	16ee`\	.	16gg'\	.	16ee\JJ	.	.
8A\J	.	8a\J	.	16ee`\	.	(16gg\	.	16dd\LL	-tra	.
!	!	!	!	!LO:N:vis=16	!	!	!	!	!	!
.	.	.	.	(32dd\L	.	32ff#\L	.	16cc#X\JJ	.	.
!	!	!	!	!LO:N:vis=16	!	!	!	!	!	!
.	.	.	.	32cc#X\JJJ)	.	32ee\JJJ)	.	.	.	.
=36	=36	=36	=36	=36	=36	=36	=36	=36	=36	=36
8D\L	.	8d\L	.	(16dd\LL	.	(16ff#\LL	.	16dd\LL	Sal-	-ta-
.	.	.	.	16ee\JJ)	.	16gg\JJ)	.	32cc#X\L	.	.
.	.	.	.	.	.	.	.	32b\JJJ	.	.
8F#\	.	8f#\	.	4ff#\	.	4aa\	.	4a\	-ve	-re
8D\J	.	8d\J	.	.	.	.	.	.	.	.
=37	=37	=37	=37	=37	=37	=37	=37	=37	=37	=37
!LO:LB:g=original	!	!LO:LB:g=original	!	!	!	!	!	!LO:TX:b:t=SIC:t=Sal-	!	!
!	!	!	!	!	!	!	!	!LO:TX:a:t=problem: [brak sylaby]	!	!
16G\LL	.	16g\LL	.	16dd'\LL	.	16bb'\LL	.	8b\L	[]-	Le-
16G\	.	16g\	.	16dd'\	.	16bb'\	.	.	.	.
16G\	.	16g\	.	16dd'\	.	16bb'\	.	24b\L	.	.
.	.	.	.	.	.	.	.	24cc#X\	.	.
16G\	.	16g\	.	16dd'\	.	16bb'\	.	.	.	.
.	.	.	.	.	.	.	.	24dd\JJ	.	.
16G\	.	16g\	.	16dd'\	.	16bb'\	.	24ee\LL	.	.
.	.	.	.	.	.	.	.	24ff#\	.	.
16G\JJ	.	16g\JJ	.	16dd'\JJ	.	16bb'\JJ	.	.	.	.
.	.	.	.	.	.	.	.	24gg\JJ	.	.
=38	=38	=38	=38	=38	=38	=38	=38	=38	=38	=38
!	!	!	!	!	!	!	!	!LO:LB:g=original	!	!
16D\LL	.	16d\LL	.	16ff#'\LL	.	16aa'\LL	.	8a\L	.	-ta-
16D\	.	16d\	.	16ff#'\	.	16aa'\	.	.	.	.
16D\	.	16d\	.	16ff#'\	.	16aa'\	.	24a\L	.	.
.	.	.	.	.	.	.	.	24b\	.	.
16D\	.	16d\	.	16ff#'\	.	16aa'\	.	.	.	.
.	.	.	.	.	.	.	.	24cc#X\JJ	.	.
16D\	.	16d\	.	16ff#'\	.	16aa'\	.	24dd\LL	.	.
.	.	.	.	.	.	.	.	24ee\	.	.
16D\JJ	.	16d\JJ	.	16ff#'\JJ	.	16aa'\JJ	.	.	.	.
.	.	.	.	.	.	.	.	24ff#\JJ	.	.
=39	=39	=39	=39	=39	=39	=39	=39	=39	=39	=39
16A\LL	.	16a\LL	.	16ee'\LL	.	16gg'\LL	.	8g\L	.	.
16A\	.	16a\	.	16ee'\	.	16gg'\	.	.	.	.
16A\	.	16a\	.	16ee'\	.	16gg'\	.	24g\L	.	.
.	.	.	.	.	.	.	.	24a\	.	.
16A\	.	16a\	.	16ee'\	.	16gg'\	.	.	.	.
.	.	.	.	.	.	.	.	24b\JJ	.	.
16A\	.	16a\	.	16ee'\	.	16gg'\	.	24cc#X\LL	.	.
.	.	.	.	.	.	.	.	24dd\	.	.
16A\JJ	.	16a\JJ	.	16ee'\JJ	.	16gg'\JJ	.	.	.	.
.	.	.	.	.	.	.	.	24ee\JJ	.	.
=40	=40	=40	=40	=40	=40	=40	=40	=40	=40	=40
!LO:TX:t=P:problem=mixed beam	!	!LO:TX:t=P:problem=mixed beam	!	!	!	!	!	!LO:TX:a:t=problem:brak klamry, brak numeru	!	!
16D\LL	.	16d\LL	.	16dd'\LL	.	16ff#'\LL	.	24ff#\LL	.	.
.	.	.	.	.	.	.	.	24ee\	.	.
16D\	.	16d\	.	16dd'\	.	16ff#'\	.	.	.	.
.	.	.	.	.	.	.	.	24dd\JJ	.	.
16A\	.	16a\	.	16cc#X'\	.	16ee'\	.	4ee\	.	.
16A\	.	16a\	.	16cc#'\	.	16ee'\	.	.	.	.
16AA/	.	16A/	.	16cc#'\	.	16ee'\	.	.	.	.
16AA/JJ	.	16A/JJ	.	16cc#'\JJ	.	16ee'\JJ	.	.	.	.
=41	=41	=41	=41	=41	=41	=41	=41	=41	=41	=41
!	!LO:DY:a	!	!LO:DY:a	!	!LO:DY:a	!	!LO:DY:a	!	!	!
!	!LO:DY:t=f	!	!	!	!	!	!	!	!	!
4D\	f	8.f#\L	f	8.dd\L	f	8.dd\L	f	4dd\	-ve	-re
.	.	16g\K	.	16ee\K	.	16ee\K	.	.	.	.
8r	.	8f#\J	.	8dd\J	.	8dd\J	.	8r	.	.
=42	=42	=42	=42	=42	=42	=42	=42	=42	=42	=42
!	!	!	!	!	!	!	!	!LO:N:vis=00	!	!
8D\L	.	8e\L	.	8gg`\L	.	8gg\L	.	1.r	.	.
8D\	.	8d\J	.	8ff#`\J	.	8ff#\J	.	.	.	.
8D\J	.	8r	.	8r	.	8r	.	.	.	.
=43	=43	=43	=43	=43	=43	=43	=43	=43	=43	=43
!	!	!	!	!LO:LB:g=original	!	!	!	!	!	!
4D\	.	8.f#\L	.	8.dd\L	.	8.dd\L	.	.	.	.
.	.	16g\K	.	16ee\K	.	16ee\K	.	.	.	.
8r	.	8f#\J	.	8dd\J	.	8dd\J	.	.	.	.
=44	=44	=44	=44	=44	=44	=44	=44	=44	=44	=44
!	!	!	!	!	!	!LO:LB:g=original	!	!	!	!
8D\L	.	8g\L	.	8bb`\L	.	8bb\L	.	.	.	.
8D\	.	8f#\J	.	8aa`\J	.	8aa\J	.	.	.	.
8D\J	.	8r	.	8r	.	8r	.	.	.	.
=45	=45	=45	=45	=45	=45	=45	=45	=45	=45	=45
!	!	!	!	!LO:TX:t=P:problem=mixed beam	!	!LO:TX:t=P:problem=mixed beam	!	!	!	!
8D\L	.	8f#\L	.	(16d/LL	.	(16d/LL	.	.	.	.
.	.	.	.	16dd\)	.	16dd\)	.	.	.	.
8F#\	.	8f#\	.	(16cc#X\	.	(16cc#X\	.	.	.	.
.	.	.	.	16dd\)	.	16dd\)	.	.	.	.
8A\J	.	8e\J	.	(16ff#\	.	(16ff#\	.	.	.	.
.	.	.	.	16cc#\JJ)	.	16cc#\JJ)	.	.	.	.
=46	=46	=46	=46	=46	=46	=46	=46	=46	=46	=46
!	!	!	!	!	!	!	!	!LO:N:vis=00	!	!
8D\	.	8f#\	.	(16dd\LL	.	(16dd\LL	.	1.r	.	.
.	.	.	.	16g#X\JJ)	.	16g#X\)	.	.	.	.
8r	.	8r	.	(16a/LL	.	(16a\	.	.	.	.
.	.	.	.	16e/JJ)	.	16e\)	.	.	.	.
8F#\	.	8a\	.	(16f#/LL	.	(16f#\	.	.	.	.
.	.	.	.	16d/JJ)	.	16d\JJ)	.	.	.	.
=47	=47	=47	=47	=47	=47	=47	=47	=47	=47	=47
!LO:TX:t=P:problem=mixed beam	!	!	!	!	!	!	!	!	!	!
8G\L	.	8b\L	.	16b\LL	.	(16b\LL	.	.	.	.
.	.	.	.	16ee\JJ	.	16ee\JJ)	.	.	.	.
!	!	!	!	!LO:TX:a:t=SIC:s=4cc#	!	!	!	!	!	!
.	.	.	.	8qqdd/	.	8qqdd/	.	.	.	.
8A\	.	8e\	.	4cc\	.	4cc#X\	.	.	.	.
8AA/J	.	8e\J	.	.	.	.	.	.	.	.
=48	=48	=48	=48	=48	=48	=48	=48	=48	=48	=48
!	!	!	!	!	!	!	!LO:DY:t=Pia	!	!	!
!	!LO:DY:a	!	!LO:DY:a	!	!	!	!LO:DY:a	!	!	!
8D\L	p	8f#\L	p	[16dd\LL	.	16dd\LL	p	.	.	.
.	.	.	.	16dd\]	.	(16dd\	.	.	.	.
8F#\	.	8f#\	.	(16cc#X\	.	16cc#X\	.	.	.	.
.	.	.	.	16dd\)	.	16dd\)	.	.	.	.
8A\J	.	8e\J	.	(16ff#\	.	(16ff#\	.	.	.	.
.	.	.	.	16cc#\JJ)	.	16cc#\JJ)	.	.	.	.
=49	=49	=49	=49	=49	=49	=49	=49	=49	=49	=49
8D\	.	8f#\	.	(16dd\LL	.	(16dd\LL	.	.	.	.
.	.	.	.	16g#X\JJ)	.	16g#X\)	.	.	.	.
8r	.	8r	.	(16a/LL	.	(16a\	.	.	.	.
.	.	.	.	16e/JJ)	.	16e\)	.	.	.	.
!	!LO:DY:a	!	!LO:DY:a	!	!	!	!	!	!	!
8F#\	f	8a\	f	(16f#/LL	.	(16f#\	.	.	.	.
.	.	.	.	16d/JJ)	.	16d\JJ)	.	.	.	.
=50	=50	=50	=50	=50	=50	=50	=50	=50	=50	=50
!	!	!	!	!	!LO:DY:t=f	!	!	!	!	!
!LO:TX:t=P:problem=mixed beam	!	!	!	!	!LO:DY:a	!	!	!LO:N:vis=0	!	!
8G\L	.	8b\L	.	(16b\LL	f	(16b\LL	.	2.r	.	.
.	.	.	.	16ee\JJ)	.	16ee\JJ)	.	.	.	.
.	.	.	.	8qqdd/	.	8qqdd/	.	.	.	.
8A\	.	8e\	.	4cc#X\	.	4cc#X\	.	.	.	.
8AA/J	.	8e\J	.	.	.	.	.	.	.	.
=51	=51	=51	=51	=51	=51	=51	=51	=51	=51	=51
!	!	!	!	!LO:TX:t=P:problem=mixed beam	!	!LO:TX:t=P:problem=mixed beam	!	!	!	!
4D\	.	4f#\	.	8dd\L	.	8dd\L	.	.	.	.
.	.	.	.	8d/J	.	8d/J	.	.	.	.
8r	.	8r	.	8r	.	8r	.	.	.	.
=52	=52	=52	=52	=52	=52	=52	=52	=52	=52	=52
!LO:LB:g=original	!	!	!	!	!	!	!LO:DY:t=Pia	!	!	!
!	!LO:DY:a	!	!LO:DY:a	!	!LO:DY:a	!	!LO:DY:a	!	!	!
4D\	p	4d\	p	8.f#/L	p	8.dd\L	p	8.dd\	Ad	Al-
.	.	.	.	16g/K	.	16ee\K	.	16ee\	te	-Le-
8r	.	8r	.	8f#/J	.	8dd\J	.	8dd\	cla-	-lu-
=53	=53	=53	=53	=53	=53	=53	=53	=53	=53	=53
!	!	!LO:LB:g=original	!	!	!	!	!	!	!	!
8D\L	.	8d\L	.	8ee`\L	.	8gg'\L	.	8gg\	-ma-	.
8D\	.	8d\	.	8dd`\J	.	8ff#'\J	.	8ff#\	-mus	-ia
8D\J	.	8d\J	.	8r	.	8r	.	8r	.	.
=54	=54	=54	=54	=54	=54	=54	=54	=54	=54	=54
4D\	.	4d\	.	8.f#/L	.	8.dd\L	.	8.dd\	{Ad	Al-
.	.	.	.	16g/K	.	16ee\K	.	16ee\	te	.
8r	.	8r	.	8f#/J	.	8dd\J	.	8dd\	cla-	-Le-
=55	=55	=55	=55	=55	=55	=55	=55	=55	=55	=55
!	!	!LO:TX:a:t=problem: 1 takt zapisany repetycją	!	!	!	!	!	!	!	!
8D\L	.	8d\L	.	8gg`\L	.	8bb\L	.	8bb\	-ma-	-lu-
8D\	.	8d\	.	8ff#`\J	.	8aa\J	.	8aa\	-mus}	-ia
8D\J	.	8d\J	.	8r	.	8r	.	8r	.	.
=56	=56	=56	=56	=56	=56	=56	=56	=56	=56	=56
!	!	!	!	!LO:LB:g=original	!	!	!	!	!	!
8D\L	.	8d\L	.	8ff#`\L	.	8aa'\L	.	8aa\	Ex-	Al-
!	!	!	!	!	!	!	!	!LO:TX:a:t=problem:brak klamry, brak numeru	!	!
8D\	.	8d\	.	(8ff#\	.	(8aa\	.	24aa\LL	.	.
.	.	.	.	.	.	.	.	24gg\	.	.
.	.	.	.	.	.	.	.	24aa\JJ	.	.
!	!	!	!	!	!	!	!	!LO:TX:a:t=problem:brak klamry, brak numeru	!	!
8D\J	.	8d\J	.	8gg\J)	.	8bb\J)	.	24bb\LL	.	.
.	.	.	.	.	.	.	.	24aa\	.	.
.	.	.	.	.	.	.	.	24gg\JJ	.	.
=57	=57	=57	=57	=57	=57	=57	=57	=57	=57	=57
!	!	!	!	!	!	!	!	!LO:LB:g=original	!	!
!	!	!	!	!	!	!	!	!LO:N:vis=4	!	!
8D\L	.	8d\L	.	8ff#`\L	.	8aa'\L	.	8aa\	.	.
!	!	!	!	!	!	!	!	!LO:TX:a:t=problem:brak klamry, brak numeru	!	!
!	!	!	!	!	!	!	!	!LO:TX:a:t=SIC:t=su-	!	!
8D\	.	8d\	.	(8ff#\	.	(8aa\	.	24aa\LL	-u-	.
.	.	.	.	.	.	.	.	24gg\	.	.
.	.	.	.	.	.	.	.	24aa\JJ	.	.
!	!	!	!	!	!	!	!	!LO:TX:a:t=problem:brak klamry, brak numeru	!	!
8D\J	.	8d\J	.	8gg\J)	.	8bb\J)	.	24bb\LL	-les	.
.	.	.	.	.	.	.	.	24aa\	.	.
.	.	.	.	.	.	.	.	24gg\JJ	.	.
=58	=58	=58	=58	=58	=58	=58	=58	=58	=58	=58
!	!	!	!	!	!	!LO:LB:g=original	!	!	!	!
8D/L	.	8d\L	.	(8ff#\L	.	(8aa\L	.	8aa\	fi-	.
8C#X/	.	8c#X\	.	8ee\)	.	8gg\)	.	8gg\	-li-	.
8D/J	.	8d\J	.	8dd`\J	.	8ff#'\J	.	8ff#\	-i	-Le-
=59	=59	=59	=59	=59	=59	=59	=59	=59	=59	=59
!LO:TX:t=P:problem=mixed beam	!	!LO:TX:t=P:problem=mixed beam	!	!	!	!	!	!LO:TX:b:t=SIC:t=He-	!	!
8A\L	.	8a\L	.	8dd`\L	.	8ff#'\L	.	8ff#\	E-	-lu-
8AA/	.	8A/	.	8cc#X`\	.	8ee'\	.	8ee\	-vae	-ia
8AA/J	.	8A/J	.	8cc#`\J	.	8ee'\J	.	8r	.	.
=60	=60	=60	=60	=60	=60	=60	=60	=60	=60	=60
8r	.	8r	.	8r	.	8r	.	4.ee\	Ad	Al-
!	!	!	!	!LO:TX:a:t=SIC:s=8cc#	!	!	!	!	!	!
8A\L	.	8a\L	.	8cc\L	.	8ee\L	.	.	.	.
!	!	!	!	!LO:TX:a:t=SIC:s=8cc#	!	!	!	!	!	!
8A\J	.	8a\J	.	8cc\J	.	8ee\J	.	.	.	.
=61	=61	=61	=61	=61	=61	=61	=61	=61	=61	=61
!	!	!	!	!LO:TX:a:t=SIC:s=8cc#	!	!	!	!	!	!
.	.	.	.	.	.	.	.	8qqa/	.	.
8A\L	.	8a\L	.	8cc\L	.	8ee\L	.	4.g\	te	-Le-
!	!	!	!	!LO:TX:a:t=SIC:s=8cc#	!	!	!	!	!	!
8A\	.	8a\	.	8cc\	.	8ee\	.	.	.	.
!	!	!	!	!LO:TX:a:t=SIC:s=8cc#	!	!	!	!	!	!
8A\J	.	8a\J	.	8cc\J	.	8ee\J	.	.	.	.
=62	=62	=62	=62	=62	=62	=62	=62	=62	=62	=62
!	!	!	!	!LO:TX:a:t=SIC:s=8cc#	!	!	!	!	!	!
8A\L	.	8a\L	.	8cc\L	.	8ee\L	.	16ee\LL	Sus-	-Lu-
.	.	.	.	.	.	.	.	16dd\JJ	.	.
!	!	!	!	!LO:TX:a:t=SIC:s=8cc#	!	!	!	!	!	!
8A\	.	8a\	.	8cc\	.	8ee\	.	16cc#X\LL	-pi-	.
.	.	.	.	.	.	.	.	16b\JJ	.	.
!	!	!	!	!LO:TX:a:t=SIC:s=8cc#	!	!	!	!	!	!
8A\J	.	8a\J	.	8cc\J	.	8ee\J	.	16a\LL	-ra-	.
.	.	.	.	.	.	.	.	16g\JJ	.	.
=63	=63	=63	=63	=63	=63	=63	=63	=63	=63	=63
8D\L	.	8d\L	.	8dd\L	.	8ff#\L	.	4f#/	-mus	-ia
8F#\	.	8f#\	.	24ff#\L	.	24aa\L	.	.	.	.
.	.	.	.	24ee\	.	24gg\	.	.	.	.
.	.	.	.	24dd\JJ	.	24ff#\JJ	.	.	.	.
8A\J	.	8a\J	.	24ee\LL	.	24gg\LL	.	8r	.	.
.	.	.	.	24dd\	.	24ff#\	.	.	.	.
.	.	.	.	24cc#X\JJ	.	24ee\JJ	.	.	.	.
=64	=64	=64	=64	=64	=64	=64	=64	=64	=64	=64
8D\L	.	8d\L	.	8dd\L	.	8ff#\L	.	4.aa\	ge-	Al-
8D\	.	8d\	.	8a\	.	8ff#\	.	.	.	.
8D\J	.	8d\J	.	8a\J	.	8ff#\J	.	.	.	.
=65	=65	=65	=65	=65	=65	=65	=65	=65	=65	=65
.	.	.	.	.	.	.	.	8qqdd/	.	.
8D\L	.	8d\L	.	8a/L	.	8ff#\L	.	4.ccn\	-men-	-Le-
8D\	.	8d\	.	8a/	.	8ff#\	.	.	.	.
8D\J	.	8d\J	.	8a/J	.	8ff#\J	.	.	.	.
=66	=66	=66	=66	=66	=66	=66	=66	=66	=66	=66
8D\L	.	8d\L	.	8a/L	.	8ff#\L	.	16aa\LL	-tes	-lu-
.	.	.	.	.	.	.	.	16gg\JJ	.	.
8D\	.	8d\	.	8a/	.	8ff#\	.	16ff#\LL	et	.
.	.	.	.	.	.	.	.	16ee\JJ	.	.
8D\J	.	8d\J	.	8a/J	.	8ff#\J	.	16dd\LL	flen-	.
.	.	.	.	.	.	.	.	16cc\JJ	.	.
=67	=67	=67	=67	=67	=67	=67	=67	=67	=67	=67
!LO:TX:t=P:problem=mixed beam	!	!LO:TX:t=P:problem=mixed beam	!	!	!	!	!	!	!	!
8G\L	.	8g\L	.	8b\L	.	8gg\L	.	4b\	-tes	-ia
8BB/	.	8B/	.	24dd\L	.	24bb\L	.	.	.	.
.	.	.	.	24cc\	.	24aa\	.	.	.	.
.	.	.	.	24b\JJ	.	24gg\JJ	.	.	.	.
8D/J	.	8d/J	.	24cc\LL	.	24aa\LL	.	8r	.	.
.	.	.	.	24b\	.	24gg\	.	.	.	.
.	.	.	.	24a\JJ	.	24ff#\JJ	.	.	.	.
=68	=68	=68	=68	=68	=68	=68	=68	=68	=68	=68
!	!	!	!	!	!	!	!	!LO:LB:g=original	!	!
!	!	!	!	!	!	!	!	!LO:TX:a:t=problem: dywiz jako oznaczenie miejsc sylab	!	!
!	!	!	!	!	!	!	!	!LO:TX:t=P:problem=mixed beam	!	!
8GG/L	.	8g\L	.	(16b\LL	.	16gg'\LL	.	16g/LL	in-	Al-
.	.	.	.	16gg\)	.	(16gg\	.	16gg\	.	.
8BB/	.	8b\	.	(16ff#\	.	16ff#\	.	16ff#\	.	.
.	.	.	.	16gg\)	.	16gg\)	.	16gg\JJ	.	.
8D/J	.	8a\J	.	(16bb\	.	(16bb\	.	16bb\LL	-hac	.
.	.	.	.	16ff#\JJ)	.	16ff#\JJ)	.	16ff#\JJ	.	.
=69	=69	=69	=69	=69	=69	=69	=69	=69	=69	=69
!LO:LB:g=original	!	!	!	!	!	!	!	!LO:TX:a:t=SIC:t=lac-	!	!
8GG/	.	8b\	.	16gg\LL	.	(16gg\LL	.	16gg\LL	lach-	.
.	.	.	.	16cc#X\JJ	.	16cc#X\)	.	16cc#X\JJ	.	.
!	!	!	!	!	!	!	!	!LO:TX:a:t=SIC:t=ri	!	!
8r	.	8r	.	(16dd\LL	.	(16dd\	.	16dd\LL	-ry-	.
.	.	.	.	16a\JJ)	.	16a\)	.	16a\JJ	.	.
8BB/	.	8d\	.	(16b\LL	.	(16b\	.	16b\LL	-ma-	.
.	.	.	.	16g\JJ)	.	16g\JJ)	.	16g\JJ	.	.
=70	=70	=70	=70	=70	=70	=70	=70	=70	=70	=70
!	!	!	!	!LO:LB:g=original	!	!	!	!	!	!
8C/L	.	8e\L	.	16e/LL	.	(16e/LL	.	16e/LL	-rum-	-Le-
.	.	.	.	16a/JJ	.	16a/JJ)	.	16a/JJ	.	.
!	!	!	!	!	!	!	!	!LO:TX:a:t=problem: dywiz jako oznaczenie miejsc sylab	!	!
.	.	.	.	8qqg/	.	8qqg/	.	8qqg/	.	-lu-
8D/	.	8a\	.	4f#/	.	4f#/	.	4f#/	.	.
8DD/J	.	8a\J	.	.	.	.	.	.	.	.
=71	=71	=71	=71	=71	=71	=71	=71	=71	=71	=71
!	!	!	!	!LO:TX:t=P:problem=mixed beam	!	!LO:TX:t=P:problem=mixed beam	!	!LO:TX:t=P:problem=mixed beam	!	!
8GG/L	.	8b\L	.	16g`/LL	.	(16g/LL	.	16g/LL	-Val-	.
.	.	.	.	16gg\	.	16gg\)	.	16gg\	.	.
8BB/	.	8b\	.	(>16ff#\	.	(16ff#\	.	16ff#\	.	.
.	.	.	.	16gg\)	.	16gg\)	.	16gg\JJ	.	.
8D/J	.	8a\J	.	(>16bb\	.	(16bb\	.	16bb\LL	.	.
.	.	.	.	16ff#\JJ)	.	16ff#\JJ)	.	16ff#\JJ	.	.
=72	=72	=72	=72	=72	=72	=72	=72	=72	=72	=72
!	!	!LO:LB:g=original	!	!	!	!LO:LB:g=original	!	!	!	!
8GG/	.	8b\	.	(16gg\LL	.	(16gg\LL	.	16gg\LL	.	.
.	.	.	.	16cc#X\JJ)	.	16cc#X\)	.	16cc#X\JJ	.	.
8r	.	8r	.	(16dd\LL	.	(16dd\	.	16dd\LL	.	.
.	.	.	.	16a\JJ)	.	16a\)	.	16a\JJ	.	.
8BB/	.	8d\	.	(16b\LL	.	(16b\	.	16b\LL	.	.
.	.	.	.	16g\JJ)	.	16g\JJ)	.	16g\JJ	.	.
=73	=73	=73	=73	=73	=73	=73	=73	=73	=73	=73
!LO:TX:t=P:problem=mixed beam	!	!	!	!	!	!	!	!	!	!
8C\L	.	8e\L	.	(16e/LL	.	16e/LL	.	16e/LL	.	.
.	.	.	.	16a/JJ)	.	16a/JJ	.	16a/JJ	.	.
!	!	!	!	!LO:TX:a:t=Da Capo	!	!LO:TX:a:t=Da Capo	!	!	!	!
.	.	.	.	8qqg/	.	8qqg/	.	8qqg/	.	.
8D\	.	8a\	.	4f#/	.	4f#/	.	4f#/	.	.
!LO:TX:a:t=Da Capo	!	!LO:TX:a:t=Da Capo	!	!	!	!	!	!	!	!
8DD/J	.	8a\J	.	.	.	.	.	.	.	.
=74	=74	=74	=74	=74	=74	=74	=74	=74	=74	=74
!LO:LB:g=original	!	!LO:LB:g=original	!	!LO:LB:g=original	!	!	!	!	!	!
4.ryy	.	4.ryy	.	4.ryy	.	4.ryy	.	4g/	-le	-ia
.	.	.	.	.	.	.	.	8r	.	.
=75	=75	=75	=75	=75	=75	=75	=75	=75	=75	=75
!	!	!	!	!	!	!	!	!LO:N:vis=00	!	!
4.ryy	.	4.ryy	.	4.ryy	.	4.ryy	.	1.r	.	.
=76	=76	=76	=76	=76	=76	=76	=76	=76	=76	=76
4.ryy	.	4.ryy	.	4.ryy	.	4.ryy	.	.	.	.
=77	=77	=77	=77	=77	=77	=77	=77	=77	=77	=77
4.ryy	.	4.ryy	.	4.ryy	.	4.ryy	.	.	.	.
=78	=78	=78	=78	=78	=78	=78	=78	=78	=78	=78
4.ryy	.	4.ryy	.	4.ryy	.	4.ryy	.	.	.	.
=79	=79	=79	=79	=79	=79	=79	=79	=79	=79	=79
!	!	!	!	!	!	!	!	!LO:N:vis=00	!	!
4.ryy	.	4.ryy	.	4.ryy	.	4.ryy	.	1.r	.	.
=80	=80	=80	=80	=80	=80	=80	=80	=80	=80	=80
4.ryy	.	4.ryy	.	4.ryy	.	4.ryy	.	.	.	.
=81	=81	=81	=81	=81	=81	=81	=81	=81	=81	=81
4.ryy	.	4.ryy	.	4.ryy	.	4.ryy	.	.	.	.
=82	=82	=82	=82	=82	=82	=82	=82	=82	=82	=82
4.ryy	.	4.ryy	.	4.ryy	.	4.ryy	.	.	.	.
=83	=83	=83	=83	=83	=83	=83	=83	=83	=83	=83
!	!	!	!	!	!	!	!	!LO:N:vis=00	!	!
4.ryy	.	4.ryy	.	4.ryy	.	4.ryy	.	1.r	.	.
=84	=84	=84	=84	=84	=84	=84	=84	=84	=84	=84
4.ryy	.	4.ryy	.	4.ryy	.	4.ryy	.	.	.	.
=85	=85	=85	=85	=85	=85	=85	=85	=85	=85	=85
4.ryy	.	4.ryy	.	4.ryy	.	4.ryy	.	.	.	.
=86	=86	=86	=86	=86	=86	=86	=86	=86	=86	=86
4.ryy	.	4.ryy	.	4.ryy	.	4.ryy	.	.	.	.
=87	=87	=87	=87	=87	=87	=87	=87	=87	=87	=87
!	!	!	!	!	!	!	!	!LO:N:vis=00	!	!
4.ryy	.	4.ryy	.	4.ryy	.	4.ryy	.	1.r	.	.
=88	=88	=88	=88	=88	=88	=88	=88	=88	=88	=88
4.ryy	.	4.ryy	.	4.ryy	.	4.ryy	.	.	.	.
=89	=89	=89	=89	=89	=89	=89	=89	=89	=89	=89
4.ryy	.	4.ryy	.	4.ryy	.	4.ryy	.	.	.	.
=90	=90	=90	=90	=90	=90	=90	=90	=90	=90	=90
4.ryy	.	4.ryy	.	4.ryy	.	4.ryy	.	.	.	.
=91	=91	=91	=91	=91	=91	=91	=91	=91	=91	=91
!	!	!	!	!	!	!	!	!LO:N:vis=0	!	!
4.ryy	.	4.ryy	.	4.ryy	.	4.ryy	.	2.r	.	.
=92	=92	=92	=92	=92	=92	=92	=92	=92	=92	=92
4.ryy	.	4.ryy	.	4.ryy	.	4.ryy	.	.	.	.
=93||	=93||	=93||	=93||	=93||	=93||	=93||	=93||	=93||	=93||	=93||
!	!	!	!	!	!	!	!	!LO:LB:g=original	!	!
*k[f#]	*	*k[f#]	*	*k[f#]	*	*k[f#]	*	*k[f#]	*	*
*M4/4	*	*M4/4	*	*M4/4	*	*M4/4	*	*M4/4	*	*
*met(c)	*	*met(c)	*	*met(c)	*	*met(c)	*	*met(c)	*	*
!LO:TX:b:t=Eia ergo	!	!LO:TX:b:t=Eia ergo	!	!LO:TX:b:t=Eia ergo	!	!LO:TX:b:t=Eia ergo	!	!	!	!
!LO:TX:a:t=Allo:	!	!LO:TX:a:t=Allo:	!	!LO:TX:a:t=Allo	!	!LO:TX:a:t=Allo:	!	!	!	!
8r	.	8r	.	8dd\	.	8dd\	.	8r	.	.
=94	=94	=94	=94	=94	=94	=94	=94	=94	=94	=94
.	.	.	.	8qqcc/	.	.	.	.	.	.
8r	.	8r	.	8.b\L	.	8.b\L	.	00r	.	.
16G\LL	.	16B/LL	.	.	.	.	.	.	.	.
16A\JJ	.	16c/JJ	.	16cc\Jk	.	16cc\Jk	.	.	.	.
8B\L	.	8d\L	.	8dd\L	.	8dd\L	.	.	.	.
8B\J	.	8d\J	.	8g\J	.	8g\J	.	.	.	.
8c\L	.	8e\L	.	24a/LL	.	24a/LL	.	.	.	.
.	.	.	.	24g/	.	24g/	.	.	.	.
.	.	.	.	24f#/JJ	.	24f#/JJ	.	.	.	.
16B\L	.	16d\L	.	4g/	.	4g/	.	.	.	.
16A\JJ	.	16c\JJ	.	.	.	.	.	.	.	.
8B\L	.	8d\L	.	.	.	.	.	.	.	.
8B\J	.	8d\J	.	8dd\	.	8dd\	.	.	.	.
=95	=95	=95	=95	=95	=95	=95	=95	=95	=95	=95
!LO:TX:t=P:problem=mixed beam	!	!	!	!	!	!	!	!	!	!
8c\L	.	8e\L	.	8.ee\L	.	(8.ee\L	.	.	.	.
8c\	.	8e\	.	.	.	.	.	.	.	.
.	.	.	.	32ff#\LL	.	32ff#\LL	.	.	.	.
.	.	.	.	32gg\JJJ	.	32gg\JJJ)	.	.	.	.
8d\	.	8f#\	.	16ff#\LL	.	(16ff#\LL	.	.	.	.
.	.	.	.	16ee\	.	16ee\)	.	.	.	.
8D/J	.	8f#\J	.	16dd\	.	(16dd\	.	.	.	.
.	.	.	.	16cc\JJ	.	16cc\JJ)	.	.	.	.
!	!	!LO:TX:t=P:problem=mixed beam	!	!	!	!	!	!	!	!
8G\L	.	8g\L	.	4.b\	.	4.b\	.	.	.	.
8A\	.	16B/L	.	.	.	.	.	.	.	.
.	.	16c/JJ	.	.	.	.	.	.	.	.
8B\	.	8d\L	.	.	.	.	.	.	.	.
8c\J	.	8g\J	.	8ee\	.	8ee\	.	.	.	.
=96	=96	=96	=96	=96	=96	=96	=96	=96	=96	=96
!LO:TX:t=P:problem=mixed beam	!	!	!	!	!	!	!	!	!	!
8B\L	.	8g\L	.	(16dd\LL	.	(16dd\LL	.	.	.	.
.	.	.	.	16b\)	.	16b\)	.	.	.	.
8c\	.	8g\	.	(16cc\	.	(16cc\	.	.	.	.
.	.	.	.	16a\JJ)	.	16a\JJ)	.	.	.	.
8d\	.	8g\	.	16b\LL	.	(16b/LL	.	.	.	.
.	.	.	.	16g\JJ	.	16g/)	.	.	.	.
8D/J	.	8f#\J	.	16a/LL	.	(16a/	.	.	.	.
.	.	.	.	16f#/JJ	.	16f#/JJ)	.	.	.	.
!	!	!LO:TX:t=P:problem=mixed beam	!	!	!	!	!	!	!	!
.	.	.	.	8qqf#/	.	(8qqf#/	.	.	.	.
8G\L	.	8g\L	.	4g/	.	4g/)	.	.	.	.
16G\L	.	16B/L	.	.	.	.	.	.	.	.
16A\JJ	.	16c/JJ	.	.	.	.	.	.	.	.
8B\L	.	8d\L	.	8r	.	8r	.	.	.	.
8G\J	.	8g\J	.	8b\	.	8b\	.	.	.	.
=97	=97	=97	=97	=97	=97	=97	=97	=97	=97	=97
!	!	!	!	!	!	!LO:LB:g=original	!	!	!	!
8D\L	.	8f#\L	.	16a`/LL	.	16a'/LL	.	.	.	.
.	.	.	.	16f#`/J	.	16f#'/J	.	.	.	.
8D\	.	8f#\	.	[8d/J	.	[8d/J	.	.	.	.
!	!	!	!	!LO:TX:a:t=problem:brak klamry, brak numeru [t.97-216]	!	!	!	!	!	!
8D\	.	8f#\	.	24d/LL]	.	24d/LL]	.	.	.	.
.	.	.	.	24f#`/	.	24f#'/	.	.	.	.
.	.	.	.	24a`/JJ	.	24a'/JJ	.	.	.	.
8D\J	.	8f#\J	.	24cc`\LL	.	24cc'\LL	.	.	.	.
.	.	.	.	24ff#`\	.	24ff#'\	.	.	.	.
.	.	.	.	24aa`\JJ	.	24aa'\JJ	.	.	.	.
8G\L	.	16g\LL	.	(16b\LL	.	16b\LL	.	.	.	.
.	.	16a\JJ	.	16cc\JJ)	.	16cc\JJ	.	.	.	.
16G\L	.	4b\	.	4dd\	.	4dd\	.	.	.	.
16A\JJ	.	.	.	.	.	.	.	.	.	.
8B\L	.	.	.	.	.	.	.	.	.	.
8G\J	.	8g\	.	8b\	.	8b\	.	.	.	.
=98	=98	=98	=98	=98	=98	=98	=98	=98	=98	=98
8D\L	.	8f#\L	.	16a`/LL	.	16a'/LL	.	00r	.	.
.	.	.	.	16f#`/J	.	16f#'/J	.	.	.	.
8D\	.	8f#\	.	[8d/J	.	[8d/J	.	.	.	.
!	!	!	!	!	!	!LO:TX:a:t=problem:brak klamry, brak numeru	!	!	!	!
8D\	.	8f#\	.	24d/LL]	.	24d/LL]	.	.	.	.
.	.	.	.	24f#`/	.	24f#'/	.	.	.	.
.	.	.	.	24a`/JJ	.	24a'/JJ	.	.	.	.
!	!	!	!	!	!	!LO:TX:a:t=problem:brak klamry, brak numeru	!	!	!	!
8D\J	.	8f#\J	.	24cc`\LL	.	24cc'\LL	.	.	.	.
.	.	.	.	24ff#`\	.	24ff#'\	.	.	.	.
.	.	.	.	24aa`\JJ	.	24aa'\JJ	.	.	.	.
8G\L	.	8g\L	.	8b\L	.	8b\L	.	.	.	.
16D\L	.	16f#\L	.	8a\J	.	8a\J	.	.	.	.
16E\JJ	.	16g\JJ	.	.	.	.	.	.	.	.
8F#\L	.	8a\L	.	8r	.	8r	.	.	.	.
8G\J	.	8b\J	.	8dd\	.	8dd\	.	.	.	.
=99	=99	=99	=99	=99	=99	=99	=99	=99	=99	=99
8c\L	.	4g\	.	(16dd\LL	.	16dd\LL	.	.	.	.
.	.	.	.	16ee\)	.	16ee\	.	.	.	.
8B\	.	.	.	(16ee\	.	16ee\	.	.	.	.
.	.	.	.	16aa\JJ)	.	16aa\JJ	.	.	.	.
.	.	.	.	8qqgg/	.	.	.	.	.	.
8d\	.	4a\	.	8.ff#\L	.	(8.ff#\L	.	.	.	.
8c\J	.	.	.	.	.	.	.	.	.	.
.	.	.	.	(32ee\LL	.	32ee\LL	.	.	.	.
.	.	.	.	32ff#\JJJ)	.	32ff#\JJJ)	.	.	.	.
!	!	!	!	!LO:LB:g=original	!	!	!	!	!	!
4B\	.	4b\	.	8gg\L	.	8gg\L	.	.	.	.
.	.	.	.	16ff#`\L	.	16ff#'\L	.	.	.	.
.	.	.	.	16ee`\JJ	.	16ee'\JJ	.	.	.	.
8r	.	8r	.	8dd`\L	.	8dd\L	.	.	.	.
8F#\	.	8a\	.	8cc`\J	.	8cc\J	.	.	.	.
=100	=100	=100	=100	=100	=100	=100	=100	=100	=100	=100
!LO:TX:t=P:problem=mixed beam	!	!	!	!	!	!LO:TX:a:t=problem:brak klamry, brak numeru	!	!	!	!
8G\L	.	8g\L	.	24b`\LL	.	24b'\LL	.	.	.	.
.	.	.	.	24cc`\	.	24cc'\	.	.	.	.
.	.	.	.	24dd`\JJ	.	24dd'\JJ	.	.	.	.
!	!	!	!	!	!	!LO:TX:a:t=problem:brak klamry, brak numeru	!	!	!	!
8C/	.	8g\	.	24ee`\LL	.	24ee'\LL	.	.	.	.
.	.	.	.	24ff#`\	.	24ff#'\	.	.	.	.
.	.	.	.	24gg`\JJ	.	24gg'\JJ	.	.	.	.
8D/	.	8f#\	.	8b\L	.	8b/L	.	.	.	.
8DD\J	.	8f#\J	.	8a\J	.	8a/J	.	.	.	.
!LO:TX:a:t=problem: nieczytelna wysokość g/a	!	!	!	!	!	!	!	!	!	!
!LO:TX:t=P:problem=mixed beam	!	!LO:TX:t=P:problem=mixed beam	!	!	!	!	!	!	!	!
8GG\L	.	8g\L	.	4g/	.	4g/	.	.	.	.
!	!LO:DY:a	!	!	!	!	!	!	!	!	!
16G/L	p	16B/L	.	.	.	.	.	.	.	.
16A/JJ	.	16c/JJ	.	.	.	.	.	.	.	.
8B\L	.	8d\L	.	8r	.	8r	.	.	.	.
!	!	!	!	!	!LO:DY:a	!	!	!	!	!
!	!	!	!	!	!LO:DY:t=p:	!	!	!	!	!
8B\J	.	8g\J	.	8dd\	p	8dd\	.	.	.	.
=101	=101	=101	=101	=101	=101	=101	=101	=101	=101	=101
!LO:LB:g=original	!	!LO:LB:g=original	!	!	!	!	!	!	!	!
8c\L	.	4g\	.	(16dd\LL	.	(16dd\LL	.	.	.	.
.	.	.	.	16ee\)	.	16ee\)	.	.	.	.
8B\	.	.	.	16ee\	.	(16ee\	.	.	.	.
.	.	.	.	16aa\JJ	.	16aa\JJ)	.	.	.	.
.	.	.	.	8qqgg/	.	8qqgg/	.	.	.	.
8d\	.	4a\	.	8.ff#\L	.	(8.ff#\L	.	.	.	.
8c\J	.	.	.	.	.	.	.	.	.	.
.	.	.	.	(32ee\LL	.	32ee\LL	.	.	.	.
.	.	.	.	32ff#\JJJ)	.	32ff#\JJJ)	.	.	.	.
4B\	.	4b\	.	8gg\L	.	8gg\L	.	.	.	.
.	.	.	.	16ff#`\L	.	16ff#'\L	.	.	.	.
.	.	.	.	16ee`\JJ	.	16ee'\JJ	.	.	.	.
8r	.	8r	.	8dd`\L	.	8dd\L	.	.	.	.
!	!LO:DY:a	!	!	!	!LO:DY:a	!	!	!	!	!
!	!	!	!	!	!LO:DY:t=f	!	!	!	!	!
8F#\	f	8a\	.	8cc`\J	f	8cc\J	.	.	.	.
=102	=102	=102	=102	=102	=102	=102	=102	=102	=102	=102
!	!	!	!	!	!	!LO:LB:g=original	!	!	!	!
!LO:TX:t=P:problem=mixed beam	!	!	!	!	!	!LO:TX:a:t=problem:brak klamry, brak numeru	!	!	!	!
8G\L	.	8g\L	.	24b`\LL	.	24b'\LL	.	2r	.	.
.	.	.	.	24cc`\	.	24cc'\	.	.	.	.
.	.	.	.	24dd`\JJ	.	24dd'\JJ	.	.	.	.
!	!	!	!	!	!	!LO:TX:a:t=problem:brak klamry, brak numeru	!	!	!	!
8C/	.	8g\	.	24ee`\LL	.	24ee'\LL	.	.	.	.
.	.	.	.	24ff#`\	.	24ff#'\	.	.	.	.
.	.	.	.	24gg`\JJ	.	24gg'\JJ	.	.	.	.
8D/	.	8g\	.	8b`/L	.	8b/L	.	.	.	.
8DD/J	.	8f#\J	.	8a`/J	.	8a/J	.	.	.	.
!LO:TX:a:t=problem: fermata na górze i na dole	!	!LO:TX:a:t=problem: fermata na górze i na dole	!	!	!	!	!	!	!	!
4GG;/	.	4g;\	.	8g/L	.	8g;>/L	.	4r	.	.
.	.	.	.	8G;/J	.	8G;</J	.	.	.	.
4r	.	4r	.	4r	.	8r	.	8r	.	.
!	!	!	!	!	!	!	!LO:DY:a	!	!	!
.	.	.	.	.	.	8dd\	p	8dd\	E-	Quia
=103	=103	=103	=103	=103	=103	=103	=103	=103	=103	=103
.	.	.	.	.	.	.	.	8qqcc/	.	.
!	!LO:DY:a	!	!LO:DY:a	!	!LO:DY:a	!	!	!	!	!
8r	p	8r	p	8r	p	8.b\L	.	8.b\L	.	.
16G\LL	.	16g\LL	.	8d/L	.	.	.	.	.	.
16A\JJ	.	16a\JJ	.	.	.	16cc\Jk	.	16cc\Jk	.	.
8B\L	.	8b\L	.	8d/	.	8dd\L	.	8dd\	.	.
!	!	!	!	!	!	!	!	!LO:TX:a:t=SIC:t=ia	!	!
8B\J	.	8b\J	.	8d/J	.	8g\J	.	8g/	-ja	quem
8c\L	.	8cc\L	.	8e/L	.	(16a/LL	.	16a/LL	er-	me
.	.	.	.	.	.	16f#/JJ)	.	16f#/JJ	.	.
16B\L	.	16b\L	.	8d/	.	4g/	.	4g/	-go	me-
16A\JJ	.	16a\JJ	.	.	.	.	.	.	.	.
8B\L	.	8b\L	.	8d/	.	.	.	.	.	.
8B\J	.	8b\J	.	8g/J	.	8dd\	.	(8dd\	ad-	.
=104	=104	=104	=104	=104	=104	=104	=104	=104	=104	=104
!LO:TX:t=P:problem=mixed beam	!	!LO:TX:t=P:problem=mixed beam	!	!	!	!	!	!	!	!
8c\L	.	8cc\L	.	8g/L	.	8.ee\L	.	8ee\)	.	-ru-
8c\	.	8cc\	.	8g/	.	.	.	16ff#\LL	-vo-	.
.	.	.	.	.	.	(32ff#\LL	.	16gg\JJ	.	.
.	.	.	.	.	.	32gg\JJJ)	.	.	.	.
8d\	.	8dd\	.	8g/	.	(16ff#\LL	.	16ff#\LL	-ca-	-i-
.	.	.	.	.	.	16ee\)	.	16ee\	.	.
8D/J	.	8d/J	.	8a/J	.	(16dd\	.	16dd\	.	.
.	.	.	.	.	.	16cc\JJ)	.	16cc\JJ	.	-sti
8G\L	.	8g\L	.	8b`\L	.	4.b\	.	4.b\	.	.
8A\	.	8a\	.	16b`\L	.	.	.	.	.	.
.	.	.	.	16cc`\JJ	.	.	.	.	.	.
8B\	.	8b\	.	8dd\L	.	.	.	.	.	.
8c\J	.	8cc\J	.	8g\J	.	8ee\	.	8ee\	-ta	por-
=105	=105	=105	=105	=105	=105	=105	=105	=105	=105	=105
!LO:TX:t=P:problem=mixed beam	!	!LO:TX:t=P:problem=mixed beam	!	!	!	!	!	!	!	!
8B\L	.	8b\L	.	8g/L	.	(16dd\LL	.	16dd\LL	nos-	-ta-
.	.	.	.	.	.	16b\)	.	16b\	.	.
8c\	.	8cc\	.	8g/	.	(16cc\	.	16cc\	.	.
.	.	.	.	.	.	16a\JJ)	.	16a\JJ	.	.
8d\	.	8dd\	.	8g/	.	(16b/LL	.	16b\LL	.	.
.	.	.	.	.	.	16g/)	.	16g\	.	.
8D/J	.	8d/J	.	8f#/J	.	(16a/	.	16a\	.	.
.	.	.	.	.	.	16f#/JJ)	.	16f#\JJ	.	.
8G\L	.	8g\L	.	8g/L	.	4g/	.	4g\	-tra	-re
16G\L	.	16g\L	.	16b`/L	.	.	.	.	.	.
16A\JJ	.	16a\JJ	.	16cc`/JJ	.	.	.	.	.	.
8B\L	.	8b\L	.	8dd\L	.	8r	.	8r	.	.
8G\J	.	8g\J	.	8g\J	.	8b\	.	8b\	il-	Al-
=106	=106	=106	=106	=106	=106	=106	=106	=106	=106	=106
!	!	!	!	!LO:LB:g=original	!	!	!	!	!	!
8D\L	.	8d\L	.	8f#/L	.	16a'/LL	.	16a\LL	.	.
.	.	.	.	.	.	16f#'/J	.	16f#\JJ	.	.
8D\	.	8d\	.	8f#/	.	[8d/J	.	8d/	.	.
!	!	!	!	!	!	!LO:TX:a:t=problem:brak klamry, brak numeru	!	!LO:TX:t=P:problem=mixed beam	!	!
8D\	.	8d\	.	8f#/	.	24d/LL]	.	16d/LL	.	.
.	.	.	.	.	.	24f#'/	.	.	.	.
.	.	.	.	.	.	.	.	16cc\JJ	.	.
.	.	.	.	.	.	24a'/JJ	.	.	.	.
!	!	!	!	!	!	!LO:TX:a:t=problem:brak klamry, brak numeru	!	!	!	!
8D\J	.	8d\J	.	8f#/J	.	24cc'\LL	.	16b\LL	-los	.
.	.	.	.	.	.	24ff#'\	.	.	.	.
.	.	.	.	.	.	.	.	16a\JJ	.	.
.	.	.	.	.	.	24aa'\JJ	.	.	.	.
*tremolo	*	*	*	*	*	*	*	*	*	*
*2\right	*	*	*	*	*	*	*	*	*	*
!	!	!	!	!	!	!	!	!LO:LB:g=original	!	!
8G\L	.	8e\L	.	(16g/LL	.	(16b\LL	.	16b\LL	tu-	.
.	.	.	.	16a/JJ)	.	16cc\JJ)	.	16cc\JJ	.	.
8G\	.	8e\	.	4b\	.	4dd\	.	4dd\	-os	.
8G\	.	8e\	.	.	.	.	.	.	.	.
8G\J	.	8e\J	.	8g/	.	8b\	.	8b\	mi-	-Le-
=107	=107	=107	=107	=107	=107	=107	=107	=107	=107	=107
8D\L	.	8d\L	.	8f#/L	.	16a'/LL	.	16a\LL	-se-	.
.	.	.	.	.	.	16f#'/J	.	16f#\JJ	.	.
8D\	.	8d\	.	8f#/	.	[8d/J	.	8d/	-ri-	.
!	!	!	!	!	!	!LO:TX:a:t=problem:brak klamry, brak numeru	!	!LO:TX:t=P:problem=mixed beam	!	!
8D\	.	8d\	.	8f#/	.	24d/LL]	.	16d/LL	-cor-	.
.	.	.	.	.	.	24f#'/	.	.	.	.
.	.	.	.	.	.	.	.	16cc\JJ	.	.
.	.	.	.	.	.	24a'/JJ	.	.	.	.
!	!	!	!	!	!	!LO:TX:a:t=problem:brak klamry, brak numeru	!	!	!	!
8D\J	.	8d\J	.	8f#/J	.	24cc'\LL	.	16b\LL	-des	.
.	.	.	.	.	.	24ff#'\	.	.	.	.
.	.	.	.	.	.	.	.	16a\JJ	.	.
.	.	.	.	.	.	24aa'\JJ	.	.	.	.
!	!	!	!	!	!	!LO:LB:g=original	!	!	!	!
8G\L	.	8g\L	.	8g/L	.	8b\L	.	16b\	o-	-Le-
.	.	.	.	.	.	.	.	16b\	-cu-	-lu-
8D\	.	8d\	.	8f#/	.	8a\J	.	8a\	-los	-ia
8F#\	.	8f#\	.	8a/	.	4r	.	8r	.	.
8D\J	.	8d\J	.	8f#/J	.	.	.	8a\	ad	Al-
=108	=108	=108	=108	=108	=108	=108	=108	=108	=108	=108
8G\L	.	8b\L	.	8b\L	.	16r	.	4b\	nos	.
.	.	.	.	.	.	16b'\LL	.	.	.	.
8G\	.	8b\	.	8dd\	.	16dd'\	.	.	.	.
.	.	.	.	.	.	16gg'\JJ	.	.	.	.
8G\	.	8b\	.	8dd\	.	4bb'\	.	16b\LL	con-	.
.	.	.	.	.	.	.	.	16gg\	.	.
8G\J	.	8b\J	.	8dd\J	.	.	.	16ff#\	.	.
.	.	.	.	.	.	.	.	16ee\JJ	.	.
8F#\L	.	8a\L	.	8dd\L	.	16r	.	[4a\	-ver-	.
.	.	.	.	.	.	16a'\LL	.	.	.	.
8F#\	.	8a\	.	8dd\	.	16dd'\	.	.	.	.
.	.	.	.	.	.	16ff#'\JJ	.	.	.	.
8F#\	.	8a\	.	8dd\	.	4aa'\	.	16a\LL]	.	.
.	.	.	.	.	.	.	.	16ff#\	.	.
8F#\J	.	8a\J	.	8dd\J	.	.	.	16ee\	.	.
.	.	.	.	.	.	.	.	16dd\JJ	.	.
*Xtremolo	*	*	*	*	*	*	*	*	*	*
=109	=109	=109	=109	=109	=109	=109	=109	=109	=109	=109
8E\L	.	8g\L	.	8cc#X\L	.	16r	.	4g\	.	.
.	.	.	.	.	.	16g'\LL	.	.	.	.
8E\	.	8g\	.	8cc#\	.	16cc#X'\	.	.	.	.
.	.	.	.	.	.	16ee'\JJ	.	.	.	.
8AA\	.	8e\	.	8cc#\	.	16gg'\LL	.	16g\LL	.	.
.	.	.	.	.	.	16ee'\	.	16ee\	.	.
8AA\J	.	8e\J	.	8cc#\J	.	16dd'\	.	16dd\	.	.
.	.	.	.	.	.	16cc#'\JJ	.	16cc#X\JJ	.	.
!	!	!	!	!	!	!LO:N:vis=8	!	!	!	!
8D\L	.	8d\L	.	8f#/L	.	8.dd\L	.	8.dd\L	.	.
8E\	.	8e\	.	8g/	.	.	.	.	.	.
.	.	.	.	.	.	32cc#X\LL	.	32cc#X\LL	.	.
.	.	.	.	.	.	32b\JJJ	.	32b\JJJ	.	.
8F#\	.	8f#\	.	8a/	.	8a/L	.	8a\L	.	.
8G\J	.	8g\J	.	8b/J	.	8g/J	.	8g\J	.	.
=110	=110	=110	=110	=110	=110	=110	=110	=110	=110	=110
!LO:LB:g=original	!	!LO:LB:g=original	!	!	!	!	!	!	!	!
!LO:TX:t=P:problem=mixed beam	!	!LO:TX:t=P:problem=mixed beam	!	!	!	!	!	!	!	!
8A\L	.	8a\L	.	8f#/L	.	(16f#/LL	.	16f#/LL	.	-Le-
.	.	.	.	.	.	16e/J)	.	16e/J	.	.
8A\	.	8a\	.	8f#/	.	8d/J	.	8d/J	.	-lu-
8AA/	.	8A/	.	8e/	.	4eeT\	.	4ee\	.	.
8AA/J	.	8A/J	.	8e/J	.	.	.	.	.	.
!	!	!	!LO:DY:a	!	!	!	!	!	!	!
8D\L	.	8d\L	f	4f#/	.	4dd\	.	4dd\	-te	-ia
8E\	.	8e\	.	.	.	.	.	.	.	.
8F#\	.	8f#\	.	8r	.	8r	.	4r	.	.
!	!	!	!	!	!LO:DY:a	!	!LO:DY:a	!	!	!
8F#\J	.	8d\J	.	8a/	f	8a\	f	.	.	.
=111	=111	=111	=111	=111	=111	=111	=111	=111	=111	=111
8G\L	.	4d\	.	(16a\LL	.	(16a\LL	.	0r	.	.
.	.	.	.	16b\)	.	16b\)	.	.	.	.
8E\	.	.	.	(16b\	.	(16b\	.	.	.	.
.	.	.	.	16ee\JJ)	.	16ee\JJ)	.	.	.	.
.	.	.	.	8qqdd/	.	8qqdd/	.	.	.	.
8A\	.	4e\	.	(8.cc#X\L	.	8.cc#X\L	.	.	.	.
8G\J	.	.	.	.	.	.	.	.	.	.
.	.	.	.	32b\LL	.	(32b\LL	.	.	.	.
.	.	.	.	32cc#\JJJ)	.	32cc#\JJJ)	.	.	.	.
4F#\	.	4f#\	.	8dd\L	.	8dd\L	.	.	.	.
.	.	.	.	16cc#`\L	.	16cc#'\L	.	.	.	.
.	.	.	.	16b`\JJ	.	16b'\JJ	.	.	.	.
!	!	!	!	!LO:TX:t=P:problem=mixed beam	!	!	!	!	!	!
8r	.	8r	.	8a/L	.	8a\L	.	.	.	.
8C#X\	.	8e\	.	8gg\J	.	8gg\J	.	.	.	.
=112	=112	=112	=112	=112	=112	=112	=112	=112	=112	=112
!LO:TX:t=P:problem=mixed beam	!	!	!	!	!	!	!	!	!	!
8D\L	.	8d\L	.	24ff#'\LL	.	24ff#\LL	.	.	.	.
.	.	.	.	24gg'\	.	24gg\	.	.	.	.
.	.	.	.	24aa'\JJ	.	24aa\JJ	.	.	.	.
8G\	.	8d\	.	24bb'\LL	.	24bb\LL	.	.	.	.
.	.	.	.	24aa'\	.	24aa\	.	.	.	.
.	.	.	.	24gg'\JJ	.	24gg\JJ	.	.	.	.
8A\	.	8d\	.	8ff#\L	.	8ff#\L	.	.	.	.
8AA/J	.	8c#X\J	.	8ee\J	.	8ee\J	.	.	.	.
8D\L	.	8d\L	.	4dd\	.	4dd\	.	.	.	.
16D\L	.	16f#\L	.	.	.	.	.	.	.	.
16E\JJ	.	16g\JJ	.	.	.	.	.	.	.	.
!	!LO:DY:t=P:ia	!	!	!	!	!	!	!	!	!
!	!LO:DY:a	!	!	!	!	!	!	!	!	!
8F#\L	p	8a\L	.	8r	.	8r	.	.	.	.
!	!	!	!LO:DY:a	!	!LO:DY:a	!	!	!	!	!
8F#\J	.	8d\J	p	8a/	p	8a\	.	.	.	.
=113	=113	=113	=113	=113	=113	=113	=113	=113	=113	=113
!	!	!	!	!LO:LB:g=original	!	!	!	!	!	!
8G\L	.	4d\	.	16a\LL	.	(16a\LL	.	1r	.	.
.	.	.	.	16b\	.	16b\)	.	.	.	.
8E\	.	.	.	16b\	.	(16b\	.	.	.	.
.	.	.	.	16ee\JJ	.	16ee\JJ)	.	.	.	.
.	.	.	.	8qqdd/	.	8qqdd/	.	.	.	.
8A\	.	4e\	.	(8.cc#X\L	.	(8.cc#X\L	.	.	.	.
8G\J	.	.	.	.	.	.	.	.	.	.
.	.	.	.	32b\LL	.	32b\LL	.	.	.	.
.	.	.	.	32cc#\JJJ)	.	32cc#\JJJ)	.	.	.	.
!	!	!	!	!	!	!LO:LB:g=original	!	!	!	!
4F#\	.	4f#\	.	8dd\L	.	8dd\L	.	.	.	.
.	.	.	.	16cc#`\L	.	16cc#\L	.	.	.	.
.	.	.	.	16b`\JJ	.	16b\JJ	.	.	.	.
!	!	!	!	!LO:TX:t=P:problem=mixed beam	!	!	!	!	!	!
8r	.	8r	.	8a\L	.	8a\L	.	.	.	.
!	!LO:DY:a	!	!LO:DY:a	!	!	!	!	!	!	!
8C#X\	f	8e\	f	8gg\J	.	8gg\J	.	.	.	.
=114	=114	=114	=114	=114	=114	=114	=114	=114	=114	=114
!LO:TX:t=P:problem=mixed beam	!	!	!	!	!	!	!	!	!	!
8D\L	.	8d\L	.	24ff#`\LL	.	24ff#\LL	.	2r	.	.
.	.	.	.	24gg`\	.	24gg\	.	.	.	.
.	.	.	.	24aa`\JJ	.	24aa\JJ	.	.	.	.
8G\	.	8d\	.	24bb`\LL	.	24bb\LL	.	.	.	.
!	!	!	!	!	!	!LO:TX:a:t=SIC:s=16ccc#	!	!	!	!
.	.	.	.	24ccc#X`\	.	24ccc\	.	.	.	.
.	.	.	.	24ddd`\JJ	.	24ddd\JJ	.	.	.	.
8A\	.	8d\	.	8ff#\L	.	8ff#\L	.	.	.	.
8AA/J	.	8c#X\J	.	8ee\J	.	8ee\J	.	.	.	.
!	!	!	!	!LO:TX:t=P:problem=mixed beam	!	!LO:TX:t=P:problem=mixed beam	!	!	!	!
4D\	.	4d\	.	8dd\L	.	8dd\L	.	4r	.	.
.	.	.	.	8d/J	.	8d/J	.	.	.	.
4r	.	4r	.	4r	.	8r	.	8r	.	.
!	!	!	!	!	!	!	!LO:DY:a	!	!	!
.	.	.	.	.	.	8aa\	p	8aa\	E-	Quia
=115	=115	=115	=115	=115	=115	=115	=115	=115	=115	=115
!	!	!LO:TX:a:t=problem: P:ia	!	!	!	!	!	!LO:LB:g=original	!	!
.	.	.	.	.	.	.	.	8qqgg/	.	.
!	!LO:DY:t=P:ia	!	!	!	!	!	!	!	!	!
!	!LO:DY:a	!	!LO:DY:a	!	!LO:DY:a	!	!	!	!	!
8r	p	8r	p	8r	p	8.ff#\L	.	8.ff#\L	.	.
16D\LL	.	16d\LL	.	8a/L	.	.	.	.	.	.
16E\JJ	.	16e\JJ	.	.	.	16gg\Jk	.	16gg\Jk	.	.
8F#\L	.	8f#\L	.	8a/	.	8aa\L	.	8aa\	.	.
8F#\J	.	8f#\J	.	8a/J	.	8dd\J	.	8dd\	-ia	Quem
8G\L	.	8g\L	.	8b/L	.	(16ee\LL	.	16ee\LL	er-	.
.	.	.	.	.	.	16cc#X\JJ)	.	16cc#X\JJ	.	.
16F#\L	.	16f#\L	.	8a/	.	4dd\	.	4dd\	-go	me-
16E\JJ	.	16e\JJ	.	.	.	.	.	.	.	.
8F#\L	.	8f#\L	.	8a/	.	.	.	.	.	.
8F#\J	.	8f#\J	.	8dd/J	.	8aa\	.	(8a\	ad-	.
=116	=116	=116	=116	=116	=116	=116	=116	=116	=116	=116
!LO:TX:t=P:problem=mixed beam	!	!LO:TX:t=P:problem=mixed beam	!	!	!	!LO:N:vis=8	!	!	!	!
8G\L	.	8g\L	.	8dd\L	.	8.bb\L	.	8b\)	.	-i-
8G\	.	8g\	.	8dd\	.	.	.	16cc#X\LL	-vo-	.
.	.	.	.	.	.	(32ccc#X\LL	.	16dd\JJ	.	.
.	.	.	.	.	.	32ddd\JJJ)	.	.	.	.
8A\	.	8a\	.	8cc#X\	.	(16ccc#\LL	.	16cc#\LL	-ca-	-sti
.	.	.	.	.	.	16bb\)	.	16b\	.	.
8AA/J	.	8A/J	.	8cc#\J	.	(16aa\	.	16a\	.	.
.	.	.	.	.	.	16gg\JJ)	.	16g\JJ	.	.
.	.	.	.	.	.	8qqgg/	.	.	.	.
!	!	!	!	!LO:TX:a:t=problem:mixed beam	!	!	!	!	!	!
8D\L	.	8d\L	.	8dd\L	.	4.ff#\	.	4.f#/	.	.
8E\	.	8e\	.	16f#`/L	.	.	.	.	.	.
.	.	.	.	16g`/JJ	.	.	.	.	.	.
8F#\	.	8f#\	.	8a/L	.	.	.	.	.	.
8G\J	.	8g\J	.	8dd/J	.	8gg\	.	8b\	-ta	por-
=117	=117	=117	=117	=117	=117	=117	=117	=117	=117	=117
!LO:TX:t=P:problem=mixed beam	!	!LO:TX:t=P:problem=mixed beam	!	!	!	!	!	!	!	!
8F#\L	.	8f#\L	.	8dd\L	.	(16aa\LL	.	16a\LL	no-	-ta-
.	.	.	.	.	.	16ff#\)	.	16f#\	.	.
8G\	.	8g\	.	8dd\	.	(16gg\	.	16g\	.	.
.	.	.	.	.	.	16ee\JJ)	.	16e\JJ	.	.
8A\	.	8a\	.	8dd\	.	(16ff#\LL	.	16ff#\LL	.	.
.	.	.	.	.	.	16dd\)	.	16dd\	.	.
8AA/J	.	8A/J	.	8cc#X\J	.	(16ee\	.	16ee\	.	.
.	.	.	.	.	.	16cc#X\JJ)	.	16cc#X\JJ	.	.
!	!	!	!	!	!LO:DY:t=f	!	!	!	!	!
!	!	!	!	!	!LO:DY:a	!LO:TX:a:t=problem:klamra łukowa, brak numeru	!	!	!	!
8D\L	.	8d\L	.	24dd`\LL	f	24dd'\LL	.	4dd\	-stra	-re
.	.	.	.	24a`\	.	24a'\	.	.	.	.
.	.	.	.	24f#`\JJ	.	24f#'\JJ	.	.	.	.
!	!	!	!	!	!	!LO:TX:a:t=problem:klamra łukowa, brak numeru	!	!	!	!
8D\J	.	8d\J	.	24d`/LL	.	24d'/LL	.	.	.	.
.	.	.	.	24f#`/	.	24f#'/	.	.	.	.
.	.	.	.	24a`/JJ	.	24a'/JJ	.	.	.	.
4D\	.	4d\	.	4dd\	.	4dd\	.	4r	.	.
=118	=118	=118	=118	=118	=118	=118	=118	=118	=118	=118
!LO:LB:g=original	!	!	!	!	!	!	!	!	!	!
8r	.	8r	.	8r	.	8r	.	8ccn\	il-	Al-
8D\L	.	8f#\L	.	8ccn\L	.	8aa\L	.	4aa\	.	.
8D\	.	8f#\	.	8cc\	.	8aa\	.	.	.	.
8D\J	.	8f#\J	.	8cc\J	.	8aa\J	.	8cc\	-los	-Le-
*tremolo	*	*	*	*	*	*	*	*	*	*
8G\L	.	8g\L	.	8cc\L	.	8aa\L	.	8cc\	tu-	.
8G\	.	8g\	.	8b\	.	8gg\	.	4b\	-os	.
8G\	.	8g\	.	8b\	.	8gg\	.	.	.	.
8G\J	.	8g\J	.	8b\J	.	8dd\J	.	8dd\	mi-	.
*Xtremolo	*	*	*	*	*	*	*	*	*	*
=119	=119	=119	=119	=119	=119	=119	=119	=119	=119	=119
!	!	!LO:LB:g=original	!	!	!	!LO:LB:g=original	!	!	!	!
4G\	.	4g\	.	8b/	.	8dd\	.	8dd\	-se-	.
.	.	.	.	4a/	.	4ccn\	.	8gg\	-ri-	.
8r	.	8r	.	.	.	.	.	8gg\	-cor-	.
8G\	.	8g\	.	8g/	.	8b\	.	8b\	-des	.
!LO:TX:t=P:problem=mixed beam	!	!LO:TX:t=P:problem=mixed beam	!	!	!	!	!	!	!	!
8d\L	.	8dd\L	.	8g/L	.	8b\L	.	16b\	o-	.
.	.	.	.	.	.	.	.	16a\	-cu-	-lu-
8D/	.	8d/	.	8f#/J	.	8a\J	.	8a\	-los	-ia
8D/	.	8d/	.	8r	.	8r	.	8r	.	.
8BB/J	.	8B/J	.	8g/	.	8dd\	.	8dd\	ad	Al-
=120	=120	=120	=120	=120	=120	=120	=120	=120	=120	=120
!	!	!	!	!LO:LB:g=original	!	!	!	!LO:LB:g=original	!	!
8C/L	.	8c/L	.	8g/L	.	(16dd\LL	.	16dd\LL	nos	-Le-
.	.	.	.	.	.	16ee\)	.	16ee\	.	.
8AA/	.	8A/	.	8g/	.	(16ee\	.	16ee\	.	.
.	.	.	.	.	.	16aa\JJ)	.	16aa\JJ	.	.
.	.	.	.	.	.	8qqgg/	.	8qqgg/	.	.
8D/	.	8d/	.	8a/	.	4ff#\	.	4ff#\	con-	.
8C/J	.	8c/J	.	8a/J	.	.	.	.	.	.
4BB/	.	4B/	.	8b\L	.	8gg\L	.	8gg\L	-ver-	.
.	.	.	.	16dd`\L	.	16ff#\L	.	16ff#\L	.	.
.	.	.	.	16cc`\JJ	.	16ee\JJ	.	16ee\JJ	.	.
8r	.	8r	.	8b`\L	.	8dd\L	.	8dd\L	.	.
8F#\	.	8f#\	.	8a`\J	.	8cc\J	.	8cc\J	.	.
=121	=121	=121	=121	=121	=121	=121	=121	=121	=121	=121
!LO:TX:t=P:problem=mixed beam	!	!LO:TX:t=P:problem=mixed beam	!	!	!	!LO:TX:a:t=problem:klamra łukowa, brak numeru	!	!	!	!
8G\L	.	8g\L	.	8g/L	.	24b'\LL	.	24b\LL	.	.
.	.	.	.	.	.	24cc'\	.	24cc\	.	.
.	.	.	.	.	.	24dd'\JJ	.	24dd\JJ	.	.
!	!	!	!	!	!	!LO:TX:a:t=problem:klamra łukowa, brak numeru	!	!	!	!
8C/	.	8c\	.	8g/	.	24ee'\LL	.	24ee\LL	.	.
.	.	.	.	.	.	24ff#'\	.	24ff#\	.	.
.	.	.	.	.	.	24gg'\JJ	.	24gg\JJ	.	-lu-
8D/	.	8d\	.	8g/	.	8b/L	.	8b\L	.	.
8DD\J	.	8D/J	.	8f#/J	.	8a/J	.	8a\J	.	.
!LO:TX:t=P:problem=mixed beam	!	!LO:TX:t=P:problem=mixed beam	!	!	!	!	!	!	!	!
8GG\L	.	8G\L	.	4g/	.	4g/	.	4g\	-te	-ia
16G\L	.	16g\L	.	.	.	.	.	.	.	.
16A\JJ	.	16a\JJ	.	.	.	.	.	.	.	.
8B\L	.	8b\L	.	8r	.	8r	.	8r	.	.
8B\J	.	8b\J	.	8g/	.	8dd\	.	8dd\	ad	Al-
=122	=122	=122	=122	=122	=122	=122	=122	=122	=122	=122
8c\L	.	8cc\L	.	8g/L	.	(16dd\LL	.	16dd\LL	nos	-Le-
.	.	.	.	.	.	16ee\)	.	16ee\	.	.
8A\	.	8a\	.	8g/	.	(16ee\	.	16ee\	.	.
.	.	.	.	.	.	16aa\JJ)	.	16aa\JJ	.	.
.	.	.	.	.	.	8qqgg/	.	8qqgg/	.	.
8d\	.	8dd\	.	8a/	.	4ff#\	.	4ff#\	con-	.
8c\J	.	8cc\J	.	8a/J	.	.	.	.	.	.
4B\	.	4b\	.	8b\L	.	8gg\L	.	8gg\L	-ver-	.
.	.	.	.	16dd\L	.	16ff#'\L	.	16ff#\L	.	.
.	.	.	.	16cc\JJ	.	16ee'\JJ	.	16ee\JJ	.	.
8r	.	8r	.	8b\L	.	8dd'\L	.	8dd\L	.	.
8F#\	.	8f#\	.	8a\J	.	8cc'\J	.	8cc\J	.	.
=123	=123	=123	=123	=123	=123	=123	=123	=123	=123	=123
!	!	!	!	!	!	!LO:TX:a:t=problem:klamra łukowa, brak numeru	!	!LO:TX:a:t=problem:klamru łukowe nad grupą i kropka zamiast cyfry	!	!
8G\L	.	8g\L	.	8g/L	.	24b'\LL	.	24b\LL	.	.
.	.	.	.	.	.	24cc'\	.	24cc\	.	.
.	.	.	.	.	.	24dd'\JJ	.	24dd\JJ	.	.
!	!	!	!	!	!	!LO:TX:a:t=problem:klamra łukowa, brak numeru	!	!	!	!
8C\	.	8c\	.	8g/	.	24ee'\LL	.	24ee\LL	.	.
.	.	.	.	.	.	24ff#'\	.	24ff#\	.	.
.	.	.	.	.	.	24gg'\JJ	.	24gg\JJ	.	.
8D\	.	8d\	.	8g/	.	8b/L	.	8b\L	.	-lu-
8D\J	.	8d\J	.	8f#/J	.	8a/J	.	8a\J	.	.
8G\L	.	8g\L	.	4g/	.	4g/	.	4g\	-te	-ia
8D\J	.	8d\J	.	.	.	.	.	.	.	.
!	!	!LO:TX:a:t=Et iesum Tace(t)	!	!LO:TX:a:t=problem: brak kreski taktowej	!	!LO:TX:a:t=Da Capo ||	!	!	!	!
!LO:TX:a:t=Da Capo	!	!LO:TX:a:t=Da Capo	!	!LO:TX:a:t=Da Capo	!	!LO:TX:a:t=problem: pojedyncza kreska taktowa	!	!LO:TX:a:t=problem: pojedyncza kreska taktowa	!	!
4GG/	.	4G/	.	4r	.	4r	.	4r	.	.
=124	=124	=124	=124	=124	=124	=124	=124	=124	=124	=124
!LO:LB:g=original	!	!	!	!	!	!	!	!	!	!
1ryy	.	1ryy	.	1ryy	.	1ryy	.	00r	.	.
=125	=125	=125	=125	=125	=125	=125	=125	=125	=125	=125
1ryy	.	1ryy	.	1ryy	.	1ryy	.	.	.	.
=126	=126	=126	=126	=126	=126	=126	=126	=126	=126	=126
1ryy	.	1ryy	.	1ryy	.	1ryy	.	.	.	.
=127	=127	=127	=127	=127	=127	=127	=127	=127	=127	=127
1ryy	.	1ryy	.	1ryy	.	1ryy	.	.	.	.
=128	=128	=128	=128	=128	=128	=128	=128	=128	=128	=128
1ryy	.	1ryy	.	1ryy	.	1ryy	.	00r	.	.
=129	=129	=129	=129	=129	=129	=129	=129	=129	=129	=129
1ryy	.	1ryy	.	1ryy	.	1ryy	.	.	.	.
=130	=130	=130	=130	=130	=130	=130	=130	=130	=130	=130
1ryy	.	1ryy	.	1ryy	.	1ryy	.	.	.	.
=131	=131	=131	=131	=131	=131	=131	=131	=131	=131	=131
1ryy	.	1ryy	.	1ryy	.	1ryy	.	.	.	.
=132	=132	=132	=132	=132	=132	=132	=132	=132	=132	=132
1ryy	.	1ryy	.	1ryy	.	1ryy	.	1r	.	.
=133	=133	=133	=133	=133	=133	=133	=133	=133	=133	=133
!	!	!	!	!	!	!LO:LB:g=original	!	!LO:LB:g=original	!	!
*k[]	*	*k[]	*	*k[]	*	*k[]	*	*k[]	*	*
*M4/4	*	*M4/4	*	*M4/4	*	*M4/4	*	*M4/4	*	*
*met(c)	*	*met(c)	*	*met(c)	*	*met(c)	*	*met(c)	*	*
!LO:TX:b:t=Et iesum	!	!	!	!	!	!	!	!	!	!
!LO:TX:a:t=Adagio	!	!	!	!	!	!LO:TX:a:t=Adagio recitatiwo	!	!	!	!
8C/L	.	1ryy	.	16.g/LL	.	16.cc\LL	.	2r	.	.
.	.	.	.	32e/K	.	32e\K	.	.	.	.
8C/	.	.	.	16.e/	.	16.e\	.	.	.	.
.	.	.	.	32e/JJk	.	32e\JJk	.	.	.	.
8C/	.	.	.	16.e/LL	.	16.e\LL	.	.	.	.
.	.	.	.	32e/K	.	32e\K	.	.	.	.
8C/J	.	.	.	16.e/	.	16.e\	.	.	.	.
.	.	.	.	32e/JJk	.	32e\JJk	.	.	.	.
4C/	.	.	.	4e/	.	4e\	.	4r	.	.
4r	.	.	.	4r	.	4r	.	8r	.	.
.	.	.	.	.	.	.	.	8g\	Et	Re-
=134	=134	=134	=134	=134	=134	=134	=134	=134	=134	=134
*	*	*	*	*	*	*2\right	*	*	*	*
!	!LO:DY:t=P:ia	!	!	!	!	!LO:TX:a:t=problem: P:	!	!	!	!
!	!LO:DY:a	!	!	!	!LO:DY:a	!	!LO:DY:b	!	!	!
1C	p	1ryy	.	2g/	p	2ee\	p	8cc\	je-	.
.	.	.	.	.	.	.	.	8cc\	-sum	-ꭍur-
.	.	.	.	.	.	.	.	8gg\	be-	.
.	.	.	.	.	.	.	.	8b\	-ne-	-re-
.	.	.	.	2g/	.	2ee\	.	8cc\	-dic-	-xit
.	.	.	.	.	.	.	.	8cc\	-tum	.
.	.	.	.	.	.	.	.	4r	.	.
=135	=135	=135	=135	=135	=135	=135	=135	=135	=135	=135
2C\	.	1ryy	.	2g/	.	2ee\	.	8cc\	fruc-	ꭍi-
.	.	.	.	.	.	.	.	8cc\	-tum	.
.	.	.	.	.	.	.	.	8gg\	Ven-	-Cut
.	.	.	.	.	.	.	.	8b-X\	-tris	.
2F\	.	.	.	2a/	.	2ff\	.	8b-\	tu-	di-
.	.	.	.	.	.	.	.	8a\	-i	-xit
.	.	.	.	.	.	.	.	4r	.	.
=136	=136	=136	=136	=136	=136	=136	=136	=136	=136	=136
*	*	*	*	*2\right	*	*	*	*	*	*
2G\	.	1ryy	.	2bn\	.	2dd\	.	8bn\	no-	di-
.	.	.	.	.	.	.	.	8b\	-bis	-xit
.	.	.	.	.	.	.	.	16r	.	.
.	.	.	.	.	.	.	.	16g\	pos	Al-
.	.	.	.	.	.	.	.	16b\	hoc	.
.	.	.	.	.	.	.	.	16dd\	ex-	.
2G\	.	.	.	2b\	.	2dd\	.	8.ff\	-i-	.
.	.	.	.	.	.	.	.	16ff\	-li-	.
!	!	!	!	!	!	!	!	!LO:LB:g=original	!	!
.	.	.	.	.	.	.	.	8ff\	-um	.
.	.	.	.	.	.	.	.	8b\	os-	-le-
=137	=137	=137	=137	=137	=137	=137	=137	=137	=137	=137
!	!	!	!	!LO:LB:g=original	!	!	!	!	!	!
4r	.	1ryy	.	4r	.	4r	.	8cc\	-ten-	-lu-
.	.	.	.	.	.	.	.	8g/	-de	-ia
!	!LO:DY:a	!	!	!	!LO:DY:a	!	!LO:DY:a	!	!	!
!	!	!	!	!	!	!	!LO:DY:t=f:	!	!	!
4G\	f	.	.	4dd\	f	4bb'\	f	4r	.	.
!	!LO:DY:a	!	!	!	!LO:DY:a	!	!LO:DY:a	!	!	!
8C\L	p	.	.	16ee'\LL	p	16ccc'\LL	p	2r	.	.
.	.	.	.	16cc'\	.	16ee'\	.	.	.	.
8C\	.	.	.	16cc'\	.	16ee'\	.	.	.	.
.	.	.	.	16cc'\JJ	.	16ee'\JJ	.	.	.	.
8C\	.	.	.	16cc'\LL	.	16ee'\LL	.	.	.	.
.	.	.	.	16cc'\	.	16ee'\	.	.	.	.
8C\J	.	.	.	16cc'\	.	16ee'\	.	.	.	.
.	.	.	.	16cc'\JJ	.	16ee'\JJ	.	.	.	.
=138	=138	=138	=138	=138	=138	=138	=138	=138	=138	=138
8C\L	.	1ryy	.	16cc'\LL	.	16ee'\LL	.	0r	.	.
.	.	.	.	16g'\	.	16cc'\	.	.	.	.
8C\	.	.	.	16g'\	.	16cc'\	.	.	.	.
.	.	.	.	16g'\JJ	.	16cc'\JJ	.	.	.	.
8C\	.	.	.	16g'\LL	.	16cc'\LL	.	.	.	.
.	.	.	.	16g'\	.	16cc'\	.	.	.	.
8C\J	.	.	.	16g'\	.	16cc'\	.	.	.	.
.	.	.	.	16g'\JJ	.	16cc'\JJ	.	.	.	.
8C\L	.	.	.	16g'/LL	.	16cc'/LL	.	.	.	.
.	.	.	.	16e'/	.	16g'/	.	.	.	.
8C\	.	.	.	16e'/	.	16g'/	.	.	.	.
.	.	.	.	16e'/JJ	.	16g'/JJ	.	.	.	.
8C\	.	.	.	(16e'/LL	.	16g'/LL	.	.	.	.
.	.	.	.	16e'/	.	16g'/	.	.	.	.
8C\J	.	.	.	16e'/	.	16g'/	.	.	.	.
.	.	.	.	16e'/JJ)	.	16g'/JJ	.	.	.	.
=139	=139	=139	=139	=139	=139	=139	=139	=139	=139	=139
!	!	!	!	!	!LO:DY:a	!	!	!	!	!
4C/	.	1ryy	.	4e/	f	4g/	.	.	.	.
!	!LO:DY:a	!	!	!	!	!	!	!	!	!
4G\	f	.	.	4dd\	.	4bb\	.	.	.	.
4C/	.	.	.	4ee\	.	4ccc\	.	.	.	.
4r	.	.	.	4r	.	4r	.	.	.	.
=140||	=140||	=140||	=140||	=140||	=140||	=140||	=140||	=140||	=140||	=140||
!LO:LB:g=original	!	!LO:LB:g=original	!	!	!	!	!	!LO:LB:g=original	!	!
*k[f#]	*	*k[f#]	*	*k[f#]	*	*k[f#]	*	*k[f#]	*	*
*M2/4	*	*M2/4	*	*M2/4	*	*M2/4	*	*M2/4	*	*
!	!	!	!	!LO:TX:a:t=SIC:t=O Clemens	!	!	!	!	!	!
!LO:TX:b:t=O clemens	!	!LO:TX:b:t=O Clemens	!	!LO:TX:b:t=O Clemes	!	!LO:TX:b:t=O Clemens	!	!	!	!
!LO:TX:a:t=Allo	!	!LO:TX:a:t=Allo	!	!LO:TX:a:t=Allo:	!	!LO:TX:a:t=Allo	!	!LO:TX:a:t=Allo	!	!
8r	.	8r	.	8dd\	.	8r	.	8r	.	.
=141	=141	=141	=141	=141	=141	=141	=141	=141	=141	=141
!	!	!	!	!	!	!LO:TX:a:t=problem:klamra łukowa, brak numeru [t.141-216]	!	!LO:N:vis=00	!	!
8G\L	.	8b\L	.	24gg'\LL	.	24gg'\LL	.	0r	.	.
.	.	.	.	24bb'\	.	24bb'\	.	.	.	.
.	.	.	.	24aa'\JJ	.	24aa'\JJ	.	.	.	.
8G\	.	8b\	.	24gg'\LL	.	24gg'\LL	.	.	.	.
.	.	.	.	24ff#'\	.	24ff#'\	.	.	.	.
.	.	.	.	24ee'\JJ	.	24ee'\JJ	.	.	.	.
!	!	!	!	!	!	!LO:LB:g=original	!	!	!	!
8G\	.	8b\	.	8dd\L	.	8dd\L	.	.	.	.
8G\J	.	8cc\J	.	8ee\J	.	8ee\J	.	.	.	.
=142	=142	=142	=142	=142	=142	=142	=142	=142	=142	=142
8G\L	.	4cc\	.	4ee\	.	4ee\	.	.	.	.
8G\	.	.	.	.	.	.	.	.	.	.
8G\	.	8b\L	.	8dd\L	.	8dd\L	.	.	.	.
8F#\J	.	8a\J	.	8cc\J	.	8cc\J	.	.	.	.
=143	=143	=143	=143	=143	=143	=143	=143	=143	=143	=143
!LO:TX:t=P:problem=mixed beam	!	!	!	!	!	!	!	!	!	!
8G\L	.	8g\L	.	(16b\LL	.	(16b\LL	.	.	.	.
.	.	.	.	16cc\	.	16cc\	.	.	.	.
8BB/	.	8d\	.	16.dd\)	.	16.dd\)	.	.	.	.
.	.	.	.	32g\JJk	.	32g\JJk	.	.	.	.
!	!	!	!	!	!	!LO:TX:t=P:problem=mixed beam	!	!	!	!
8C/	.	8e\	.	(16a\LL	.	(16a\LL	.	.	.	.
.	.	.	.	16b\	.	16b\	.	.	.	.
8D/J	.	8f#\J	.	16.cc\)	.	16.cc\)	.	.	.	.
.	.	.	.	32f#\JJk	.	32f#/JJk	.	.	.	.
=144	=144	=144	=144	=144	=144	=144	=144	=144	=144	=144
!LO:TX:t=P:problem=mixed beam	!	!LO:TX:t=P:problem=mixed beam	!	!	!	!	!	!	!	!
8GG/L	.	8g\L	.	4g/	.	4g/	.	.	.	.
16G\L	.	16B/L	.	.	.	.	.	.	.	.
16A\JJ	.	16c/JJ	.	.	.	.	.	.	.	.
8B\L	.	8d\L	.	8r	.	8r	.	.	.	.
8G\J	.	8g\J	.	8bb\	.	8bb\	.	.	.	.
=145	=145	=145	=145	=145	=145	=145	=145	=145	=145	=145
!	!	!	!	!	!	!	!	!LO:N:vis=00	!	!
8F#\L	.	8f#\L	.	16aa\LL	.	16aa\LL	.	0r	.	.
.	.	.	.	16dd\JJ	.	16dd\JJ	.	.	.	.
8F#\	.	8f#\	.	4ddT\	.	4ddT\	.	.	.	.
8F#\	.	8f#\	.	.	.	.	.	.	.	.
8F#\J	.	8f#\J	.	8aa\	.	8aa\	.	.	.	.
=146	=146	=146	=146	=146	=146	=146	=146	=146	=146	=146
!LO:TX:t=P:problem=mixed beam	!	!	!	!LO:LB:g=original	!	!	!	!	!	!
8E\L	.	8e\L	.	16gg\LL	.	16gg\LL	.	.	.	.
.	.	.	.	16cc#X\JJ	.	16cc#X\JJ	.	.	.	.
8AA/	.	8e\	.	4cc#\	.	4cc#t\	.	.	.	.
8AA/	.	8e\	.	.	.	.	.	.	.	.
8AA/J	.	8e\J	.	8gg\	.	8gg\	.	.	.	.
=147	=147	=147	=147	=147	=147	=147	=147	=147	=147	=147
!LO:TX:t=P:problem=mixed beam	!	!LO:TX:t=P:problem=mixed beam	!	!	!	!	!	!	!	!
8D\L	.	8d\L	.	24ff#'\LL	.	24ff#'\LL	.	.	.	.
.	.	.	.	24ee'\	.	24ee'\	.	.	.	.
.	.	.	.	24dd'\JJ	.	24dd'\JJ	.	.	.	.
8G\	.	8g\	.	24bb'\LL	.	24bb'\LL	.	.	.	.
.	.	.	.	24aa'\	.	24aa'\	.	.	.	.
.	.	.	.	24gg'\JJ	.	24gg'\JJ	.	.	.	.
8A\	.	8a\	.	8ff#\L	.	8ff#\L	.	.	.	.
8AA/J	.	8A/J	.	8ee\J	.	8ee\J	.	.	.	.
=148	=148	=148	=148	=148	=148	=148	=148	=148	=148	=148
8D\L	.	4d\	.	4dd\	.	4dd\	.	.	.	.
16d\L	.	.	.	.	.	.	.	.	.	.
16cn\JJ	.	.	.	.	.	.	.	.	.	.
8B\L	.	8r	.	8r	.	8r	.	.	.	.
8A\J	.	8b\	.	8dd\	.	8dd\	.	.	.	.
=149	=149	=149	=149	=149	=149	=149	=149	=149	=149	=149
!	!	!	!	!	!	!	!	!LO:N:vis=00	!	!
8G\L	.	8b\L	.	24gg'\LL	.	24gg'\LL	.	0r	.	.
.	.	.	.	24bb'\	.	24bb'\	.	.	.	.
.	.	.	.	24aa'\JJ	.	24aa'\JJ	.	.	.	.
!	!	!	!	!	!	!LO:TX:a:t=problem:brak klamry, brak numeru	!	!	!	!
8A\	.	8cc\	.	24gg'\LL	.	24gg\LL	.	.	.	.
.	.	.	.	24ff#'\	.	24ff#\	.	.	.	.
.	.	.	.	24ee'\JJ	.	24ee\JJ	.	.	.	.
8B\	.	8dd\	.	8dd\L	.	8dd\L	.	.	.	.
8G\J	.	8b\J	.	8ffn\J	.	8ffn\J	.	.	.	.
=150	=150	=150	=150	=150	=150	=150	=150	=150	=150	=150
!	!	!	!	!LO:TX:a:t=SIC:s=4ffn	!	!	!	!	!	!
8d\L	.	4dd\	.	4ff#\	.	4ffn\	.	.	.	.
8B\	.	.	.	.	.	.	.	.	.	.
8c\	.	8cc\L	.	8ee\L	.	8ee\L	.	.	.	.
8B\J	.	8b\J	.	8dd\J	.	8dd\J	.	.	.	.
=151	=151	=151	=151	=151	=151	=151	=151	=151	=151	=151
!LO:TX:t=P:problem=mixed beam	!	!	!	!	!	!	!	!	!	!
8A\L	.	4a\	.	(16cc\LL	.	(16cc\LL	.	.	.	.
.	.	.	.	16dd\	.	16dd\	.	.	.	.
8F#\	.	.	.	16.ee\)	.	16.ee\)	.	.	.	.
.	.	.	.	32cc\JJk	.	32cc'\JJk	.	.	.	.
8G\	.	4g\	.	(16b\LL	.	(16b\LL	.	.	.	.
.	.	.	.	16cc\	.	16cc\	.	.	.	.
8GG/J	.	.	.	16.dd\)	.	16.dd\)	.	.	.	.
.	.	.	.	32b\JJk	.	32b'\JJk	.	.	.	.
=152	=152	=152	=152	=152	=152	=152	=152	=152	=152	=152
8D\L	.	8f#\L	.	8a/L	.	8a/L	.	.	.	.
16D\L	.	16f#\L	.	8d/J	.	8d/J	.	.	.	.
16E\JJ	.	16g\JJ	.	.	.	.	.	.	.	.
8F#\L	.	8a\L	.	8r	.	8r	.	.	.	.
8B\J	.	8b\J	.	8dd\	.	8dd\	.	.	.	.
=153	=153	=153	=153	=153	=153	=153	=153	=153	=153	=153
!LO:TX:t=P:problem=mixed beam	!	!	!	!	!	!LO:LB:g=original	!	!LO:N:vis=00	!	!
8c\L	.	8g\L	.	8.ee\L	.	8.ee\L	.	0r	.	.
8B\	.	8g\	.	.	.	.	.	.	.	.
.	.	.	.	(32ff#\LL	.	(32ff#\LL	.	.	.	.
.	.	.	.	32gg\JJJ)	.	32gg\JJJ)	.	.	.	.
8d\	.	8a\	.	(16ff#\LL	.	(16ff#\LL	.	.	.	.
.	.	.	.	16ee\)	.	16ee\)	.	.	.	.
8D/J	.	8a\J	.	(16dd\	.	(16dd\	.	.	.	.
.	.	.	.	16cc\JJ)	.	16cc\JJ)	.	.	.	.
=154	=154	=154	=154	=154	=154	=154	=154	=154	=154	=154
!LO:LB:g=original	!	!	!	!	!	!	!	!	!	!
8G\L	p	16g\LL	.	(16b\LL	.	(16b\LL	.	.	.	.
.	.	16a\JJ	.	16cc\JJ)	.	16cc\JJ)	.	.	.	.
16G\L	.	4b\	.	4dd\	.	4dd\	.	.	.	.
16A\JJ	.	.	.	.	.	.	.	.	.	.
8B\L	.	.	.	.	.	.	.	.	.	.
8c\J	.	8g\	.	8ee\	.	8ee\	.	.	.	.
=155	=155	=155	=155	=155	=155	=155	=155	=155	=155	=155
!LO:TX:t=P:problem=mixed beam	!	!	!	!	!	!	!	!	!	!
8B\L	.	8g\L	.	16dd'\LL	.	16dd'\LL	.	.	.	.
.	.	.	.	16gg'\	.	16gg'\	.	.	.	.
8c\	.	8g\J	.	16ff#'\	.	16ff#'\	.	.	.	.
.	.	.	.	16ee'\JJ	.	16ee'\JJ	.	.	.	.
8d\	.	16b\LL	.	16dd'\LL	.	16dd'\LL	.	.	.	.
.	.	16a\	.	16cc'\	.	16cc'\	.	.	.	.
8D/J	.	16g\	.	16b'\	.	16b'\	.	.	.	.
.	.	16g\JJ	.	16a'\JJ	.	16a'\JJ	.	.	.	.
=156	=156	=156	=156	=156	=156	=156	=156	=156	=156	=156
!	!	!LO:LB:g=original	!	!	!	!	!	!	!	!
!	!	!LO:TX:a:t=p:	!	!	!	!	!	!	!	!
!LO:TX:a:t=problem: 2 takty zapisane repetycją	!	!LO:TX:t=P:problem=mixed beam	!	!	!	!	!	!	!	!
8G\L	f	8g\L	.	4g/	.	4g/	.	.	.	.
!	!	!	!LO:DY:a	!	!	!	!	!	!	!
16G\L	.	16B/L	p	.	.	.	.	.	.	.
16A\JJ	.	16c/JJ	.	.	.	.	.	.	.	.
!LO:TX:a:t=problem: P:	!LO:DY:a	!	!	!	!	!	!	!	!	!
8B\L	p	8d\L	.	8r	.	8r	.	.	.	.
!	!	!	!	!	!LO:DY:a	!	!LO:DY:a	!	!	!
8c\J	.	8g\J	.	8dd\	p	8dd\	p	.	.	.
=157	=157	=157	=157	=157	=157	=157	=157	=157	=157	=157
!LO:TX:t=P:problem=mixed beam	!	!	!	!	!	!	!	!LO:N:vis=0	!	!
8c\L	.	8g\L	.	(8.ee\L	.	8.ee\L	.	1r	.	.
8B\	.	8g\	.	.	.	.	.	.	.	.
.	.	.	.	32ff#\LL	.	(32ff#\LL	.	.	.	.
.	.	.	.	32gg\JJJ)	.	32gg\JJJ)	.	.	.	.
8d\	.	8a\	.	(16ff#\LL	.	(16ff#\LL	.	.	.	.
.	.	.	.	16ee\)	.	16ee\)	.	.	.	.
8D/J	.	8a\J	.	(16dd\	.	(16dd\	.	.	.	.
.	.	.	.	16cc\JJ)	.	16cc\JJ)	.	.	.	.
=158	=158	=158	=158	=158	=158	=158	=158	=158	=158	=158
!	!	!	!	!LO:LB:g=original	!	!	!	!	!	!
8G\Lyy	.	16g\LL	.	(16b\LL	.	(16b\LL	.	.	.	.
.	.	16a\JJ	.	16cc\JJ)	.	16cc\JJ)	.	.	.	.
16G\Lyy	.	4b\	.	4dd\	.	4dd\	.	.	.	.
16A\JJyy	.	.	.	.	.	.	.	.	.	.
!LO:TX:a:t=problem: P:	!LO:DY:a	!	!	!	!	!	!	!	!	!
8B\Lyy	p	.	.	.	.	.	.	.	.	.
!	!	!	!	!	!LO:DY:a	!	!LO:DY:a	!	!	!
8c\Jyy	.	8g\	.	8ee\	f	8ee\	f	.	.	.
=159	=159	=159	=159	=159	=159	=159	=159	=159	=159	=159
!LO:TX:t=P:problem=mixed beam	!	!	!LO:DY:a	!	!	!	!	!	!	!
8c\Lyy	.	8g\L	f	16dd`\LL	.	16dd'\LL	.	2r	.	.
.	.	.	.	16gg`\	.	16gg'\	.	.	.	.
8B\yy	.	8g\J	.	16ff#`\	.	16ff#'\	.	.	.	.
.	.	.	.	16ee`\JJ	.	16ee'\JJ	.	.	.	.
8d\yy	.	16b\LL	.	16dd'\LL	.	16dd'\LL	.	.	.	.
.	.	16a\	.	16cc'\	.	16cc'\	.	.	.	.
8D/Jyy	.	16g\	.	16b'\	.	16b'\	.	.	.	.
.	.	16f#\JJ	.	16a'\JJ	.	16a'\JJ	.	.	.	.
=160	=160	=160	=160	=160	=160	=160	=160	=160	=160	=160
!LO:TX:a:t=problem: fermata na górze i na dole	!	!LO:TX:a:t=problem: fermata na górze i na dole	!	!	!	!	!	!	!	!
4G;\	.	4g;\	.	8g/L	.	8g;>/L	.	4r	.	.
!	!	!	!	!LO:TX:a:t=problem: fermata na górze i na dole	!	!	!	!	!	!
.	.	.	.	8G;/J	.	8G;</J	.	.	.	.
4r	.	4r	.	8r	.	8r	.	8r	.	.
!	!	!	!	!	!	!	!LO:DY:a	!	!	!
.	.	.	.	8dd\	.	8dd\	p	8dd\	O	O-
=161	=161	=161	=161	=161	=161	=161	=161	=161	=161	=161
*tremolo	*	*	*	*	*	*	*	*	*	*
!	!LO:DY:a	!	!LO:DY:a	!	!	!	!	!	!	!
8G\L	p	8g\L	p	8b\L	.	24gg'\LL	.	8gg\L	cle-	.
.	.	.	.	.	.	24bb'\	.	.	.	.
.	.	.	.	.	.	24aa'\JJ	.	.	.	.
8G\	.	8g\	.	8b\	.	24gg'\LL	.	16ff#\L	.	.
.	.	.	.	.	.	24ff#'\	.	.	.	.
.	.	.	.	.	.	.	.	16ee\JJ	.	.
.	.	.	.	.	.	24ee'\JJ	.	.	.	.
!	!	!	!	!	!	!	!	!LO:TX:a:t=SIC:t=mens	!	!
8G\	.	8g\	.	8b\	.	8dd\L	.	8dd\	-mes	-ra
8G\J	.	8g\J	.	8cc\J	.	8ee\J	.	8ee\	o	pro
=162	=162	=162	=162	=162	=162	=162	=162	=162	=162	=162
!	!LO:DY:y=P:ia	!	!	!	!	!	!	!	!	!
!	!LO:DY:a	!	!	!	!	!	!	!	!	!
8G\L	p	8g\L	.	4cc\	.	4ee\	.	4ee\	pi-	no-
8G\	.	8g\	.	.	.	.	.	.	.	.
8G\	.	8g\	.	8b\L	.	8dd\L	.	8dd\	-a	.
8F#\J	.	8f#\J	.	8a\J	.	8cc\J	.	8cc\	o	.
=163	=163	=163	=163	=163	=163	=163	=163	=163	=163	=163
!LO:TX:t=P:problem=mixed beam	!	!LO:TX:t=P:problem=mixed beam	!	!	!	!	!	!	!	!
8G\L	.	8g\L	.	8g/L	.	(16b\LL	.	16b\LL	pi-	.
.	.	.	.	.	.	16cc\	.	16cc\	.	.
8BB/	.	8B/	.	8d/	.	16.dd\)	.	16dd\	.	.
.	.	.	.	.	.	.	.	16g\JJ	.	.
.	.	.	.	.	.	32g\JJk	.	.	.	.
!	!	!	!	!	!	!LO:TX:t=P:problem=mixed beam	!	!	!	!
8C/	.	8c/	.	8e/	.	(16a\LL	.	16a\LL	.	.
.	.	.	.	.	.	16b\	.	16b\	.	.
8D/J	.	8d/J	.	8f#/J	.	16.cc\)	.	16cc\	.	.
.	.	.	.	.	.	.	.	16f#\JJ	.	.
.	.	.	.	.	.	32f#/JJk	.	.	.	.
=164	=164	=164	=164	=164	=164	=164	=164	=164	=164	=164
!LO:TX:t=P:problem=mixed beam	!	!LO:TX:t=P:problem=mixed beam	!	!	!	!LO:LB:g=original	!	!	!	!
8GG/L	.	8G/L	.	8g/L	.	4g/	.	4g\	-a	-bis
16G\L	.	16g\L	.	16b`/L	.	.	.	.	.	.
16A\JJ	.	16a\JJ	.	16cc`/JJ	.	.	.	.	.	.
8B\L	.	8b\L	.	8dd\L	.	8r	.	8r	.	.
8G\J	.	8g\J	.	8dd\J	.	8bb\	.	8b\	o	o-
=165	=165	=165	=165	=165	=165	=165	=165	=165	=165	=165
8F#\L	.	8f#\L	.	8dd\L	.	16aa\LL	.	16a\LL	Dul-	.
.	.	.	.	.	.	16dd\JJ	.	16cc#X\JJ	.	.
8F#\	.	8f#\	.	8a\	.	4ddT\	.	4dd\	.	.
8F#\	.	8f#\	.	8a\	.	.	.	.	.	.
8F#\J	.	8f#\J	.	8dd\J	.	8aa\	.	8a\	-cis	.
*Xtremolo	*	*	*	*	*	*	*	*	*	*
=166	=166	=166	=166	=166	=166	=166	=166	=166	=166	=166
!LO:TX:t=P:problem=mixed beam	!	!LO:TX:t=P:problem=mixed beam	!	!LO:TX:t=P:problem=mixed beam	!	!	!	!	!	!
8E\L	.	8e\L	.	8cc#X\L	.	16gg\LL	.	16g\LL	Vir-	.
.	.	.	.	.	.	16cc#X\JJ	.	16cc#X\JJ	.	.
8AA/	.	8A/	.	8e/	.	4cc#t\	.	4ee\	.	.
8AA/	.	8A/	.	8e/	.	.	.	.	.	.
8AA/J	.	8A/J	.	8ee\J	.	8gg\	.	8gg\	-go	.
=167	=167	=167	=167	=167	=167	=167	=167	=167	=167	=167
4D\	.	4d\	.	8dd\L	.	8ff#\L	.	8ff#\L	Ma-	.
!	!	!	!	!LO:TX:a:t=SIC:s=16cc#	!	!	!	!	!	!
.	.	.	.	16cc\L	.	16ee\L	.	16ee\L	.	.
.	.	.	.	16dd\JJ	.	16ff#\JJ	.	16ff#\JJ	.	.
!	!	!	!	!	!	!	!	!LO:TX:a:t=problem:brak klamry, brak numeru	!	!
8r	.	8r	.	8ee\L	.	8gg\L	.	24gg\LL	-ri-	.
.	.	.	.	.	.	.	.	24ff#\	.	.
.	.	.	.	.	.	.	.	24ee\JJ	.	.
!	!	!	!	!	!	!	!	!LO:TX:a:t=problem:brak klamry, brak numeru	!	!
8D\	.	8d\	.	8dd\J	.	8ff#\J	.	24ff#\LL	.	.
.	.	.	.	.	.	.	.	24ee\	.	.
.	.	.	.	.	.	.	.	24dd\JJ	.	.
=168	=168	=168	=168	=168	=168	=168	=168	=168	=168	=168
!LO:TX:t=P:problem=mixed beam	!	!LO:TX:t=P:problem=mixed beam	!	!	!	!	!	!LO:LB:g=original	!	!
.	.	.	.	.	.	.	.	8qqdd/	.	.
!	!	!	!	!	!LO:DY:t=f	!	!	!	!	!
!	!	!	!	!	!LO:DY:a	!	!LO:DY:a	!	!	!
8A\L	.	8a\L	.	24cc#X\LL	f	24ee'\LL	f	4cc#X\	-a	-ra
.	.	.	.	24a\	.	24a'\	.	.	.	.
!	!	!	!	!	!	!LO:TX:a:t=SIC:s=16cc#	!	!	!	!
.	.	.	.	24cc#\JJ	.	24cc'\JJ	.	.	.	.
8AA/	.	8A/	.	24ee\LL	.	24ee'\LL	.	.	.	.
!	!	!	!	!	!	!LO:TX:a:t=SIC:s=16cc#	!	!	!	!
.	.	.	.	24cc#\	.	24cc'\	.	.	.	.
.	.	.	.	24ee\JJ	.	24ee'\JJ	.	.	.	.
!	!	!	!	!LO:TX:t=P:problem=mixed beam	!	!	!	!	!	!
8AA/	.	8A/	.	8aa\L	.	8aa\L	.	8r	.	.
8F#\J	.	8f#\J	.	8a/J	.	8dd\J	.	8a\	o	o-
=169	=169	=169	=169	=169	=169	=169	=169	=169	=169	=169
4G\	.	4g\	.	4b\	.	4dd\	.	16b\LL	dul-	.
.	.	.	.	.	.	.	.	16dd\	.	.
.	.	.	.	.	.	.	.	16ee\	.	.
.	.	.	.	.	.	.	.	16ff#\JJ	.	.
8r	.	8r	.	8r	.	8r	.	16gg\LL	.	.
.	.	.	.	.	.	.	.	16aa\JJ	.	.
!	!	!	!	!	!	!	!LO:DY:a	!	!	!
8G\	.	8g\	.	8b\	.	8ee\	p	16bb\LL	-cis	.
.	.	.	.	.	.	.	.	16dd\JJ	.	.
=170	=170	=170	=170	=170	=170	=170	=170	=170	=170	=170
!LO:LB:g=original	!	!	!	!	!	!	!	!	!	!
.	.	.	.	.	.	.	.	8qqdd/	.	.
8A\L	.	8a\L	.	8cc\L	.	8ee\L	.	8cc\L	Vir-	-ra
8G\	.	8g\	.	8cc\	.	8ee\	.	16b\L	.	.
.	.	.	.	.	.	.	.	16a\JJ	.	.
8F#\	.	8f#\	.	8dd\	.	8ff#\	.	8dd\	-go	.
8G\J	.	8g\J	.	8ee\J	.	8gg\J	.	8gg\	Ma-	pro
=171	=171	=171	=171	=171	=171	=171	=171	=171	=171	=171
!	!	!LO:LB:g=original	!	!	!	!	!	!	!	!
!LO:TX:t=P:problem=mixed beam	!	!LO:TX:t=P:problem=mixed beam	!	!	!	!	!	!	!	!
8A\L	.	8a\L	.	8dd\L	.	8ff#\L	.	(32ff#\LLL	-ri-	no-
.	.	.	.	.	.	.	.	32ee\JJ	.	.
.	.	.	.	.	.	.	.	8.dd\J)	.	.
8A\	.	8a\	.	8dd\	.	8ff#\	.	.	.	.
!	!	!	!	!LO:TX:a:t=SIC:s=8cc#	!	!	!	!	!	!
8AA/	.	8A/	.	8cc\	.	8ee\	.	4ee\	.	.
!	!	!	!	!LO:TX:a:t=SIC:s=8cc#	!	!	!	!	!	!
8AA/J	.	8A/J	.	8cc\J	.	8ee\J	.	.	.	.
=172	=172	=172	=172	=172	=172	=172	=172	=172	=172	=172
!	!LO:DY:a	!	!LO:DY:a	!	!	!	!	!	!	!
8D\L	f	8d\L	f	4dd\	.	4ff#\	.	4dd\	-a	-bis
8E\	.	16f#\L	.	.	.	.	.	.	.	.
.	.	16g\JJ	.	.	.	.	.	.	.	.
8F#\	.	8a\L	.	8r	.	8r	.	4r	.	.
!	!	!	!	!	!LO:DY:a	!	!LO:DY:a	!	!	!
8F#\J	.	8d\J	.	8a/	f	8a/	f	.	.	.
=173	=173	=173	=173	=173	=173	=173	=173	=173	=173	=173
!LO:TX:t=P:problem=mixed beam	!	!	!	!LO:LB:g=original	!	!	!	!LO:N:vis=00	!	!
8G\L	.	8d\L	.	(8.b\L	.	(8.b\L	.	0r	.	.
8E\	.	8d\	.	.	.	.	.	.	.	.
.	.	.	.	32cc#X\LL	.	32cc#X\LL	.	.	.	.
.	.	.	.	32dd\JJJ)	.	32dd\JJJ)	.	.	.	.
8A\	.	8e\	.	(16cc#\LL	.	(16cc#\LL	.	.	.	.
.	.	.	.	16b\)	.	16b\)	.	.	.	.
8AA/J	.	8e\J	.	(16a\	.	(16a\	.	.	.	.
.	.	.	.	16g\JJ)	.	16g\JJ)	.	.	.	.
=174	=174	=174	=174	=174	=174	=174	=174	=174	=174	=174
8D\L	.	16d\LL	.	(16f#/LL	.	(16f#/LL	.	.	.	.
.	.	16e\JJ	.	16g/JJ)	.	16g/JJ)	.	.	.	.
16D\L	.	4f#\	.	4a/	.	4a/	.	.	.	.
16E\JJ	.	.	.	.	.	.	.	.	.	.
8F#\L	.	.	.	.	.	.	.	.	.	.
8G\J	.	8d\	.	8b/	.	8b/	.	.	.	.
=175	=175	=175	=175	=175	=175	=175	=175	=175	=175	=175
!LO:TX:t=P:problem=mixed beam	!	!	!	!	!	!	!	!	!	!
8F#\L	.	8d\L	.	16a`\LL	.	16a'\LL	.	.	.	.
.	.	.	.	16dd`\	.	16dd'\	.	.	.	.
8G\	.	8d\J	.	16cc#X`\	.	16cc#X'\	.	.	.	.
.	.	.	.	16b`\JJ	.	16b'\JJ	.	.	.	.
8A\	.	16f#\LL	.	16a`/LL	.	16a'/LL	.	.	.	.
.	.	16e\	.	16g`/	.	16g'/	.	.	.	.
8AA/J	.	16d\	.	16f#`/	.	16f#'/	.	.	.	.
.	.	16c#X\JJ	.	16e`/JJ	.	16e'/JJ	.	.	.	.
=176	=176	=176	=176	=176	=176	=176	=176	=176	=176	=176
!	!	!	!	!	!	!LO:LB:g=original	!	!	!	!
8D\L	.	8d\L	.	4d/	.	4d/	.	.	.	.
16D\L	.	16f#\L	.	.	.	.	.	.	.	.
16E\JJ	.	16g\JJ	.	.	.	.	.	.	.	.
!	!LO:DY:t=P:ia	!	!	!	!	!	!	!	!	!
!	!LO:DY:a	!LO:TX:a:t=problem: P:ia	!LO:DY:a	!	!	!	!	!	!	!
8F#\L	p	8a\L	p	8r	.	8r	.	.	.	.
!	!	!	!	!	!LO:DY:a	!	!	!	!	!
8D\J	.	8d\J	.	8a/	p	8a\	.	.	.	.
=177	=177	=177	=177	=177	=177	=177	=177	=177	=177	=177
!LO:TX:t=P:problem=mixed beam	!	!	!	!	!	!	!	!LO:N:vis=0	!	!
8G\L	.	8d\L	.	(8.b\L	.	8.b\L	.	1r	.	.
8E\	.	8d\	.	.	.	.	.	.	.	.
.	.	.	.	32cc#X\LL	.	32cc#X\LL	.	.	.	.
.	.	.	.	32dd\JJJ)	.	32dd\JJJ	.	.	.	.
8A\	.	8e\	.	(16cc#\LL	.	16cc#'\LL	.	.	.	.
.	.	.	.	16b\)	.	16b'\	.	.	.	.
8AA/J	.	8e\J	.	(16a\	.	16a'\	.	.	.	.
.	.	.	.	16g\JJ)	.	16g'\JJ	.	.	.	.
=178	=178	=178	=178	=178	=178	=178	=178	=178	=178	=178
8D\L	.	16d\LL	.	(16f#/LL	.	(16f#/LL	.	.	.	.
.	.	16e\JJ	.	16g/JJ)	.	16g/JJ)	.	.	.	.
16D\L	.	4f#\	.	4a/	.	4a/	.	.	.	.
16E\JJ	.	.	.	.	.	.	.	.	.	.
!	!LO:DY:a	!	!	!	!	!	!	!	!	!
8F#\L	f	.	.	.	.	.	.	.	.	.
!LO:TX:a:t=SIC:s=8C#	!	!	!LO:DY:a	!	!LO:DY:a	!	!	!	!	!
8C\J	.	8c#X\	f	8gg\	f	8gg\	.	.	.	.
=179	=179	=179	=179	=179	=179	=179	=179	=179	=179	=179
!LO:TX:t=P:problem=mixed beam	!	!LO:TX:t=P:problem=mixed beam	!	!	!	!	!	!	!	!
8D\L	.	8d\L	.	16ff#`\LL	.	16ff#'\LL	.	2r	.	.
.	.	.	.	16bb`\	.	16bb'\	.	.	.	.
8G\	.	8g\	.	16aa`\	.	16aa'\	.	.	.	.
.	.	.	.	16gg`\JJ	.	16gg'\JJ	.	.	.	.
8A\	.	8a\	.	16ff#`\LL	.	16ff#'\LL	.	.	.	.
.	.	.	.	16ee`\	.	16ee'\	.	.	.	.
8AA/J	.	8A/J	.	16dd`\	.	16dd'\	.	.	.	.
!	!	!	!	!	!	!LO:TX:a:t=SIC:s=16cc#	!	!	!	!
.	.	.	.	16cc#X`\JJ	.	16cc'\JJ	.	.	.	.
=180	=180	=180	=180	=180	=180	=180	=180	=180	=180	=180
!	!	!	!	!LO:TX:t=P:problem=mixed beam	!	!LO:TX:t=P:problem=mixed beam	!	!	!	!
4D\	.	4d\	.	8dd\L	.	8dd\L	.	4r	.	.
.	.	.	.	8d/J	.	8d/J	.	.	.	.
4r	.	4r	.	8r	.	8r	.	8r	.	.
!	!	!	!	!	!LO:DY:a	!	!LO:DY:a	!	!	!
.	.	.	.	8a/	p	8a\	p	8a\	O	O-
=181	=181	=181	=181	=181	=181	=181	=181	=181	=181	=181
*tremolo	*	*	*	*	*	*	*	*	*	*
!	!LO:DY:t=P:ia	!	!	!	!	!	!	!	!	!
!	!LO:DY:a	!	!LO:DY:a	!	!	!	!	!	!	!
8D\L	p	8d\L	p	8f#/L	.	24dd'\LL	.	8dd\L	Cle-	.
.	.	.	.	.	.	24ff#'\	.	.	.	.
.	.	.	.	.	.	24ee'\JJ	.	.	.	.
8D\	.	8d\	.	8f#/	.	24dd'\LL	.	16cc#X\L	.	.
.	.	.	.	.	.	24cc#X'\	.	.	.	.
.	.	.	.	.	.	.	.	16b\JJ	.	.
.	.	.	.	.	.	24b'\JJ	.	.	.	.
!	!	!	!	!	!	!	!	!LO:TX:a:t=SIC:t=mens	!	!
8D\	.	8d\	.	8f#/	.	8a\L	.	8a\	-mes	-ra
8D\J	.	8d\J	.	8g/J	.	8b\J	.	8b\	o	pro
*Xtremolo	*	*	*	*	*	*	*	*	*	*
=182	=182	=182	=182	=182	=182	=182	=182	=182	=182	=182
8D\L	.	8d\L	.	4g/	.	4b\	.	4b\	pi-	no-
8D\	.	8d\	.	.	.	.	.	.	.	.
!	!	!	!	!LO:TX:t=P:problem=mixed beam	!	!	!	!	!	!
8D\	.	8d\	.	8f#/L	.	8a\L	.	8a\	-a	.
8C#X\J	.	8c#X\J	.	8dd\J	.	8gg\J	.	8gg\	o	.
=183	=183	=183	=183	=183	=183	=183	=183	=183	=183	=183
8D\L	.	8d\L	.	8dd\L	.	(16ff#\LL	.	16ff#\LL	pi-	.
.	.	.	.	.	.	16gg\	.	16gg\	.	.
8F#\	.	8f#\	.	8dd\	.	16.aa\)	.	16aa\	.	.
.	.	.	.	.	.	.	.	16dd\JJ	.	.
.	.	.	.	.	.	32dd\JJk	.	.	.	.
!	!	!	!	!	!	!	!	!LO:LB:g=original	!	!
8G\	.	8g\	.	8dd\	.	(16ee\LL	.	16ee\LL	.	.
.	.	.	.	.	.	16ff#\	.	16ff#\	.	.
8A\J	.	8a\J	.	8cc#X\J	.	16.gg\)	.	16gg\	.	.
.	.	.	.	.	.	.	.	16cc#X\JJ	.	.
.	.	.	.	.	.	32cc#X\JJk	.	.	.	.
=184	=184	=184	=184	=184	=184	=184	=184	=184	=184	=184
!	!	!	!	!LO:TX:t=P:problem=mixed beam	!	!	!	!LO:TX:a:t=problem: nieczytelna pięciolinia i wysokość dźwięku	!	!
8D\L	.	8d\L	.	8dd\L	.	4dd\	.	4dd\yy	-a	-bis
16D\L	.	16d\L	.	16f#/L	.	.	.	.	.	.
16E\JJ	.	16e\JJ	.	16g/JJ	.	.	.	.	.	.
8F#\L	.	8f#\L	.	8a\L	.	8r	.	8r	.	.
8D\J	.	8d\J	.	8dd\J	.	8ff#\	.	8ff#\	o	O-
=185	=185	=185	=185	=185	=185	=185	=185	=185	=185	=185
!LO:LB:g=original	!	!LO:LB:g=original	!	!LO:LB:g=original	!	!	!	!	!	!
!	!	!	!	!LO:TX:a:t=SIC:s=16cc#	!	!	!	!	!	!
4A\	.	4a\	.	(16cc\LL	.	(16ee\LL	.	16ee\LL	cle-	ra
.	.	.	.	16dd\JJ)	.	16ff#\JJ)	.	16ff#\JJ	.	.
!	!	!	!	!	!	!	!	!LO:TX:a:t=SIC:t=mens	!	!
.	.	.	.	4ee\	.	4gg\	.	4gg\	-mes	pro
8r	.	8r	.	.	.	.	.	.	.	.
8D\	.	8d\	.	8dd\	.	8ff#\	.	8ff#\	o	.
=186	=186	=186	=186	=186	=186	=186	=186	=186	=186	=186
!LO:TX:a:t=problem: P:ia	!	!LO:TX:t=P:problem=mixed beam	!	!	!	!	!	!	!	!
8A\L	.	8a\L	.	8dd\	.	8ff#\	.	8ff#\	pi-	no-
8AA/	.	8A/	.	4cc#X\	.	4ee\	.	4ee\	-a	.
8C#X/	.	8c#X/	.	.	.	.	.	.	.	.
8D/J	.	8d/J	.	8dd\	.	8ff#\	.	8ff#\	o	.
=187	=187	=187	=187	=187	=187	=187	=187	=187	=187	=187
4A\	.	4a\	.	(16cc#X\LL	.	(16ee\LL	.	16ee\LL	Cle-	.
.	.	.	.	16dd\JJ)	.	16ff#\JJ)	.	16ff#\JJ	.	.
!	!	!	!	!	!	!	!	!LO:TX:a:t=SIC:t=mens	!	!
.	.	.	.	4ee\	.	4gg\	.	4gg\	-mes	.
8r	.	8r	.	.	.	.	.	.	.	.
8D\	.	8d\	.	8dd\	.	8ff#\	.	8ff#\	o	.
=188	=188	=188	=188	=188	=188	=188	=188	=188	=188	=188
!	!	!	!	!	!	!LO:LB:g=original	!	!	!	!
4A\	.	4a\	.	8dd`\L	.	8ff#\L	.	8ff#\	pi-	.
.	.	.	.	8cc#X`\J	.	8ee\J	.	8ee\	-a	-bis
8d\L	.	8dd\L	.	8r	.	8r	.	8r	.	.
8B\J	.	8b\J	.	8g/	.	8dd\	.	8dd\	o	Al-
=189	=189	=189	=189	=189	=189	=189	=189	=189	=189	=189
!LO:TX:t=P:problem=mixed beam	!	!LO:TX:t=P:problem=mixed beam	!	!	!	!	!	!	!	!
8c\L	.	8cc\L	.	8g/L	.	8ee\L	.	8ee\L	Dul-	-Le-
8A\	.	8a\	.	8g/J	.	(16ff#\L	.	16ff#\L	.	.
.	.	.	.	.	.	16gg\JJ)	.	16gg\JJ	.	.
8d\	.	8dd\	.	8a/L	.	(16ff#\LL	.	16ff#\LL	-cis	.
.	.	.	.	.	.	16ee\)	.	16ee\	.	.
8D/J	.	8d/J	.	8a/J	.	(16dd\	.	16dd\	.	.
.	.	.	.	.	.	16cc\JJ)	.	16cc\JJ	.	.
=190	=190	=190	=190	=190	=190	=190	=190	=190	=190	=190
4G\	.	4g\	.	(16g/LL	.	(16b\LL	.	16b\LL	Vir-	-Lu-
.	.	.	.	16a/JJ)	.	16cc\JJ)	.	16cc\JJ	.	.
.	.	.	.	4b/	.	4dd\	.	4dd\	-go	.
8r	.	8r	.	.	.	.	.	.	.	.
8C/	.	8c\	.	8g/	.	8ee\	.	8ee\	Ma-	.
=191	=191	=191	=191	=191	=191	=191	=191	=191	=191	=191
8BB/L	.	8B/L	.	8g/L	.	16dd'\LL	.	16dd\LL	.	.
.	.	.	.	.	.	16gg'\	.	16gg\	.	.
8C/	.	8c/	.	8g/	.	16ff#'\	.	16ff#\	.	.
.	.	.	.	.	.	16ee'\JJ	.	16ee\JJ	.	.
8D/	.	8d/	.	8g/	.	16dd'\LL	.	16dd\LL	.	.
.	.	.	.	.	.	16cc'\	.	16cc\	.	.
8DD/J	.	8D/J	.	8f#/J	.	16b'\	.	16b\	.	.
.	.	.	.	.	.	16a'\JJ	.	16a\JJ	-ri-	.
=192	=192	=192	=192	=192	=192	=192	=192	=192	=192	=192
!LO:TX:t=P:problem=mixed beam	!	!LO:TX:t=P:problem=mixed beam	!	!	!	!	!	!LO:LB:g=original	!	!
8GG/L	.	8G/L	.	8g`/L	.	4g/	.	4g\	-a	-ia
16G\L	.	16g\L	.	16b`/L	.	.	.	.	.	.
16A\JJ	.	16a\JJ	.	16cc`/JJ	.	.	.	.	.	.
8B\L	.	8b\L	.	8dd`\L	.	8r	.	8r	.	.
8B\J	.	8b\J	.	8g`\J	.	8dd\	.	8dd\	o	Al-
=193	=193	=193	=193	=193	=193	=193	=193	=193	=193	=193
!LO:TX:t=P:problem=mixed beam	!	!LO:TX:t=P:problem=mixed beam	!	!	!	!	!	!	!	!
8c\L	.	8cc\L	.	8g/L	.	8ee\L	.	8ee\L	Dul-	-Le-
8A\	.	8b\	.	8g/	.	(16ff#\L	.	16ff#\L	.	.
.	.	.	.	.	.	16gg\JJ)	.	16gg\JJ	.	.
8d\	.	8dd\	.	8a/	.	(16ff#\LL	.	16ff#\LL	-cis	.
.	.	.	.	.	.	16ee\)	.	16ee\	.	.
8D/J	.	8d/J	.	8a/J	.	(16dd\	.	16dd\	.	.
.	.	.	.	.	.	16cc\JJ)	.	16cc\JJ	.	.
=194	=194	=194	=194	=194	=194	=194	=194	=194	=194	=194
4G\	.	4g\	.	(16g/LL	.	(16b\LL	.	16b\LL	Vir-	-lu-
.	.	.	.	16a/JJ)	.	16cc\JJ)	.	16cc\JJ	.	.
.	.	.	.	4b\	.	4dd\	.	4dd\	-go	.
8r	.	8r	.	.	.	.	.	.	.	.
8C/	.	8c/	.	8g/	.	8ee\	.	8ee\	Ma-	.
=195	=195	=195	=195	=195	=195	=195	=195	=195	=195	=195
8BB/L	.	8B/L	.	8g/L	.	16dd'\LL	.	16dd\LL	.	.
.	.	.	.	.	.	16gg'\	.	16gg\	.	.
8C/	.	8c/	.	8g/	.	16ff#'\	.	16ff#\	.	.
.	.	.	.	.	.	16ee'\JJ	.	16ee\JJ	.	.
8D/	.	8d/	.	8g/	.	16dd'\LL	.	16dd\LL	.	.
.	.	.	.	.	.	16cc'\	.	16cc\	.	.
8DD/J	.	8D/J	.	8f#/J	.	16b'\	.	16b\	.	.
.	.	.	.	.	.	16a'\JJ	.	16a\JJ	-ri-	.
=196	=196	=196	=196	=196	=196	=196	=196	=196	=196	=196
!LO:TX:t=P:problem=mixed beam	!	!	!	!	!	!	!	!	!	!
8GG/L	.	4G/	.	4g/	.	4g/	.	4g\	-a	-ia
!	!LO:DY:t=f:	!	!	!	!	!	!	!	!	!
!	!LO:DY:a	!	!	!	!	!	!	!	!	!
16G\L	f	.	.	.	.	.	.	.	.	.
16A\JJ	.	.	.	.	.	.	.	.	.	.
!	!	!	!	!	!	!LO:TX:a:t=Da Capo	!	!	!	!
!	!	!LO:TX:a:t=Da Capo	!	!LO:TX:a:t=Da Capo	!	!LO:TX:a:t=problem: brak kreski taktowej	!	!	!	!
8B\L	.	4r	.	4r	.	4r	.	4r	.	.
!LO:TX:a:t=Da Capo	!	!	!	!	!	!	!	!	!	!
8G\J	.	.	.	.	.	.	.	.	.	.
=197	=197	=197	=197	=197	=197	=197	=197	=197	=197	=197
!	!	!	!	!	!	!	!	!LO:N:vis=00	!	!
2ryy	.	2ryy	.	2ryy	.	2ryy	.	0r	.	.
=198	=198	=198	=198	=198	=198	=198	=198	=198	=198	=198
2ryy	.	2ryy	.	2ryy	.	2ryy	.	.	.	.
=199	=199	=199	=199	=199	=199	=199	=199	=199	=199	=199
2ryy	.	2ryy	.	2ryy	.	2ryy	.	.	.	.
=200	=200	=200	=200	=200	=200	=200	=200	=200	=200	=200
2ryy	.	2ryy	.	2ryy	.	2ryy	.	.	.	.
=201	=201	=201	=201	=201	=201	=201	=201	=201	=201	=201
!	!	!	!	!	!	!	!	!LO:N:vis=00	!	!
2ryy	.	2ryy	.	2ryy	.	2ryy	.	0r	.	.
=202	=202	=202	=202	=202	=202	=202	=202	=202	=202	=202
2ryy	.	2ryy	.	2ryy	.	2ryy	.	.	.	.
=203	=203	=203	=203	=203	=203	=203	=203	=203	=203	=203
2ryy	.	2ryy	.	2ryy	.	2ryy	.	.	.	.
=204	=204	=204	=204	=204	=204	=204	=204	=204	=204	=204
2ryy	.	2ryy	.	2ryy	.	2ryy	.	.	.	.
=205	=205	=205	=205	=205	=205	=205	=205	=205	=205	=205
!	!	!	!	!	!	!	!	!LO:N:vis=00	!	!
2ryy	.	2ryy	.	2ryy	.	2ryy	.	0r	.	.
=206	=206	=206	=206	=206	=206	=206	=206	=206	=206	=206
2ryy	.	2ryy	.	2ryy	.	2ryy	.	.	.	.
=207	=207	=207	=207	=207	=207	=207	=207	=207	=207	=207
2ryy	.	2ryy	.	2ryy	.	2ryy	.	.	.	.
=208	=208	=208	=208	=208	=208	=208	=208	=208	=208	=208
2ryy	.	2ryy	.	2ryy	.	2ryy	.	.	.	.
=209	=209	=209	=209	=209	=209	=209	=209	=209	=209	=209
!	!	!	!	!	!	!	!	!LO:N:vis=00	!	!
2ryy	.	2ryy	.	2ryy	.	2ryy	.	0r	.	.
=210	=210	=210	=210	=210	=210	=210	=210	=210	=210	=210
2ryy	.	2ryy	.	2ryy	.	2ryy	.	.	.	.
=211	=211	=211	=211	=211	=211	=211	=211	=211	=211	=211
2ryy	.	2ryy	.	2ryy	.	2ryy	.	.	.	.
=212	=212	=212	=212	=212	=212	=212	=212	=212	=212	=212
2ryy	.	2ryy	.	2ryy	.	2ryy	.	.	.	.
=213	=213	=213	=213	=213	=213	=213	=213	=213	=213	=213
!	!	!	!	!	!	!	!	!LO:N:vis=00	!	!
2ryy	.	2ryy	.	2ryy	.	2ryy	.	0r	.	.
=214	=214	=214	=214	=214	=214	=214	=214	=214	=214	=214
2ryy	.	2ryy	.	2ryy	.	2ryy	.	.	.	.
=215	=215	=215	=215	=215	=215	=215	=215	=215	=215	=215
2ryy	.	2ryy	.	2ryy	.	2ryy	.	.	.	.
=216	=216	=216	=216	=216	=216	=216	=216	=216	=216	=216
2ryy	.	2ryy	.	2ryy	.	2ryy	.	.	.	.
==	==	==	==	==	==	==	==	==	==	==
*-	*-	*-	*-	*-	*-	*-	*-	*-	*-	*-
!!!system-decoration: [(g1)][(g2)][(g3)]
!!!RDF**dynam: p=pia
!!!RDF**dynam: f=for
!!!RDF**kern: >= above
!!!RDF**kern: <= below
!!!AIN: 2 empty 2 violn 1 vox
!!!ENC: Anna Matuszewska
!!!END: 2020-06-02
